!!!COM: Beethoven, Ludwig van
!!!CDT: 1770///-1827///
!!!ODT: 1810///-1811///
!!!OTL: String Quartet No. 11 in F Minor, Op. 95 (Serioso)
!!!OPS: Op. 95
!!!OMV: Mvmt. 1
!!!OMD: Allegro con brio
!!!PDT: 1816///
!!!PPP: Vienna
!!!ODE: Nik Zmeskall von Domanovetz gewidmet
!!!MPD: 1814/05//
**kern	**dynam	**kern	**dynam	**kern	**dynam	**kern	**dynam
*staff4	*staff4	*staff3	*staff3	*staff2	*staff2	*staff1	*staff1
*Icello	*Icello	*Iviola	*Iviola	*Ivioln	*Ivioln	*Ivioln	*Ivioln
*clefF4	*clefF4	*clefC3	*clefC3	*clefG2	*clefG2	*clefG2	*clefG2
*k[b-e-a-d-]	*k[b-e-a-d-]	*k[b-e-a-d-]	*k[b-e-a-d-]	*k[b-e-a-d-]	*k[b-e-a-d-]	*k[b-e-a-d-]	*k[b-e-a-d-]
*f:	*f:	*f:	*f:	*f:	*f:	*f:	*f:
*met(C)	*met(C)	*met(C)	*met(C)	*met(C)	*met(C)	*met(C)	*met(C)
*M4/4	*M4/4	*M4/4	*M4/4	*M4/4	*M4/4	*M4/4	*M4/4
*MM120	*MM120	*MM120	*MM120	*MM120	*MM120	*MM120	*MM120
=1-	=1-	=1-	=1-	=1-	=1-	=1-	=1-
(16FF/LL	f	(16F/LL	f	(16f/LL	f	(16f/LL	f
16GG/	.	16G/	.	16g/	.	16g/	.
16AA-/	.	16A-/	.	16a-/	.	16a-/	.
16GG/JJ)	.	16G/JJ)	.	16g/JJ)	.	16g/JJ)	.
8FF'/L	.	8F'/L	.	8f'/L	.	8f'/L	.
8EE-'/J	.	8E-'/J	.	8e-'/J	.	8e-'/J	.
8DD-'/L	.	8D-'/L	.	8d-'/L	.	8d-'/L	.
8CC'/	.	8C'/	.	8c'/	.	8c'/	.
8DDn'/	.	8Dn'/	.	8dn'/	.	8dn'/	.
8EEn'/J	.	8En'/J	.	8en'/J	.	8en'/J	.
=2	=2	=2	=2	=2	=2	=2	=2
4FF/	.	4F/	.	4f/	.	4f/	.
4r	.	4r	.	4r	.	4r	.
2r	.	2r	.	2r	.	2r	.
=3	=3	=3	=3	=3	=3	=3	=3
4C/	.	4En/	.	4G/	.	8r	.
.	.	.	.	.	.	16r	.
.	.	.	.	.	.	(16cc\	.
8r	.	8r	.	8r	.	(4ccc\)	.
16r	.	16r	.	16r	.	.	.
16C/	.	(16E/	.	(16G/	.	.	.
4C/	.	4F/)	.	4A-/)	.	8ccc\L)	.
.	.	.	.	.	.	16r	.
.	.	.	.	.	.	(16ccc\Jk	.
8r	.	8r	.	8r	.	(4cc\)	.
16r	.	16r	.	16r	.	.	.
16C/	.	(16F/	.	(16A-/	.	.	.
=4	=4	=4	=4	=4	=4	=4	=4
8C/L	.	8En/L)	.	8G/L)	.	8cc\L)	.
16r	.	16r	.	16r	.	16r	.
(16C/Jk	.	(16G/Jk	.	(16en/Jk	.	(16cc\Jk	.
8F\L)	.	8A-/L)	.	8f/L)	.	8c/L)	.
16r	.	16r	.	16r	.	16r	.
(16F\Jk	.	(16A-/Jk	.	(16f/Jk	.	(16c/Jk	.
8C/L)	.	8G/L)	.	8e/L)	.	8cc\L)	.
16r	.	16r	.	16r	.	16r	.
(16C/Jk	.	(16en/Jk	.	(16g/Jk	.	(16cc\Jk	.
8FF/L)	.	8f\L)	.	8a-/L)	.	8ccc\L)	.
16r	.	16r	.	16r	.	16r	.
(16FF/Jk	.	(16f\Jk	.	(16a-/Jk	.	(16cc\Jk	.
=5	=5	=5	=5	=5	=5	=5	=5
8CC/L)	.	8en\L)	.	8g/L)	.	8ccc\L)	.
16r	.	16r	.	16r	.	16r	.
16C/Jk	.	(16c\Jk	.	(16c/Jk	.	(16cc\Jk	.
4C/	.	4C/)	.	4c/)	.	4c/)	.
2r	.	2r	.	2r	.	2r	.
=6	=6	=6	=6	=6	=6	=6	=6
(16G-\LL	.	4r	.	4r	.	4r	.
16A-\	.	.	.	.	.	.	.
16B-\	.	.	.	.	.	.	.
16A-\JJ)	.	.	.	.	.	.	.
8G-'\L	.	2.g-\	.	[2.b-\	.	[2.dd-\	.
8F'\J	.	.	.	.	.	.	.
8E-'\L	.	.	.	.	.	.	.
8D-'\	.	.	.	.	.	.	.
8E-'\	.	.	.	.	.	.	.
8F'\J	.	.	.	.	.	.	.
=7	=7	=7	=7	=7	=7	=7	=7
1G-	p	(2d-\	p	(2b-\]	p	(2dd-\]	p
.	.	2B-/)	.	2g-/)	.	2gg-\	.
=8	=8	=8	=8	=8	=8	=8	=8
1A-	.	1Bn	.	1f	.	2.bn\)	.
.	.	.	.	.	.	(4dd-\	.
=9	=9	=9	=9	=9	=9	=9	=9
1G	.	1B-	.	1en	.	2dd-\	.
.	.	.	.	.	.	2cc\)	.
=10	=10	=10	=10	=10	=10	=10	=10
12CC/L	.	1C 1G	.	1en 1b-	.	2.cc\	.
12EEn/	.	.	.	.	.	.	.
12GG/J	.	.	.	.	.	.	.
16BB-\LL	.	.	.	.	.	.	.
16C\	.	.	.	.	.	.	.
16En\	.	.	.	.	.	.	.
16G\JJ	.	.	.	.	.	.	.
4B-\	.	.	.	.	.	.	.
4r	.	.	.	.	.	[4ff\	.
=11	=11	=11	=11	=11	=11	=11	=11
1CC 1GG	.	1B-	.	1d-	.	(2ff\]	.
.	.	.	.	.	.	2een\)	.
=12	=12	=12	=12	=12	=12	=12	=12
12CC/L	.	(1C 1B-	.	1en 1dd-	.	2.een\	.
12EEn/	.	.	.	.	.	.	.
12GG/J	.	.	.	.	.	.	.
16BB-\LL	.	.	.	.	.	.	.
16C\	.	.	.	.	.	.	.
16En\	.	.	.	.	.	.	.
16G\JJ	.	.	.	.	.	.	.
12B-\L	.	.	.	.	.	.	.
12c\	.	.	.	.	.	.	.
12en\J	.	.	.	.	.	.	.
[4g\	.	.	.	.	.	(4ddd-\	.
=13	=13	=13	=13	=13	=13	=13	=13
4g\]	.	4C/) 4B-/	.	4en/	.	(2.ccc\)	.
(4g\	.	(16C/LL	.	(4e/	.	.	.
.	.	16Dn/	.	.	.	.	.
.	.	16En/	.	.	.	.	.
.	.	16D/JJ)	.	.	.	.	.
4en\	.	4C/	.	4g/	.	.	.
4g\)	.	4r	.	4c/)	.	4bb-\	.
=14	=14	=14	=14	=14	=14	=14	=14
4f\	.	4F/	.	(4c/	.	4aa-\	.
(4f\	.	(4F/	.	4A-/	.	4ff\	.
4en\	.	4G/	.	4B-/	.	4dd-\	.
8f\L	.	8A-/L	.	8c/L	.	8cc\L	.
8a-\J)	.	8F/J)	.	8f/J)	.	8ddd-\J)	.
=15	=15	=15	=15	=15	=15	=15	=15
4g\	.	4C/	.	4en/	.	(2.ccc\	.
(4g\	.	(16C/LL	.	(4e/	.	.	.
.	.	16Dn/	.	.	.	.	.
.	.	16En/	.	.	.	.	.
.	.	16D/JJ)	.	.	.	.	.
4en\	.	4C/	.	4g/	.	.	.
4g\)	.	4r	.	4e/)	.	4bb-\)	.
=16	=16	=16	=16	=16	=16	=16	=16
(4f\	.	4D-/	.	4f/	.	(2aa-\	.
4F\	.	(16D-/LL	.	(4f/	.	.	.
.	.	16E-/	.	.	.	.	.
.	.	16F/	.	.	.	.	.
.	.	16E-/JJ)	.	.	.	.	.
4G\	.	4D-/	.	4g/	.	2ff\)	.
4A-\)	.	(16D-/LL	.	4a-/)	.	.	.
.	.	16E-/	.	.	.	.	.
.	.	16F/	.	.	.	.	.
.	.	16D-/JJ)	.	.	.	.	.
=17	=17	=17	=17	=17	=17	=17	=17
2GG/	.	4Dn/	.	(4Bn/	.	2bn\	.
.	.	(16D/LL	.	4f/	.	.	.
.	.	16En/	.	.	.	.	.
.	.	16F/	.	.	.	.	.
.	.	16D/JJ)	.	.	.	.	.
2CC/	.	4G/	.	4en/	.	4..cc\	.
.	.	(16C/LL	.	4cc\)	.	.	.
.	.	16D/	.	.	.	.	.
.	.	16E/	.	.	.	.	.
.	.	16C/JJ)	.	.	.	16cc\	.
=18	=18	=18	=18	=18	=18	=18	=18
(16FF/LL	f	(16F/LL	f	(16f/LL	f	(16f/LL	f
16GG/	.	16G/	.	16g/	.	16g/	.
16AA-/	.	16A-/	.	16a-/	.	16a-/	.
16GG/JJ)	.	16G/JJ)	.	16g/JJ)	.	16g/JJ)	.
8FF'/L	.	8F'/L	.	8f'/L	.	8f'/L	.
8EE-'/J	.	8E-'/J	.	8e-'/J	.	8e-'/J	.
8DD-'/L	.	8D-'/L	.	8d-'/L	.	8d-'/L	.
8CC'/	.	8C'/	.	8c'/	.	8c'/	.
8DDn'/	.	8Dn'/	.	8dn'/	.	8dn'/	.
8EEn'/J	.	8En'/J	.	8en'/J	.	8en'/J	.
=19	=19	=19	=19	=19	=19	=19	=19
(16FF/LL	.	(16F/LL	.	(16f/LL	.	(16f/LL	.
16GG/	.	16G/	.	16g/	.	16g/	.
16AA-/	.	16A-/	.	16a-/	.	16a-/	.
16GG/JJ)	.	16G/JJ)	.	16g/JJ)	.	16g/JJ)	.
4FF'/	.	4F'/	.	4f'/	.	4f'/	.
(16GG-/LL	.	(16G-/LL	.	(16g-/LL	.	(16g-/LL	.
16AA-/	.	16A-/	.	16a-/	.	16a-/	.
16BB-/	.	16B-/	.	16b-/	.	16b-/	.
16AA-/JJ)	.	16A-/JJ)	.	16a-/JJ)	.	16a-/JJ)	.
4GG-'/	.	4G-'/	.	4g-'/	.	4g-'/	.
=20	=20	=20	=20	=20	=20	=20	=20
16GG/LL	ff	16G/LL	ff	16g/LL	ff	16g/LL	ff
16AA-/	.	16A-/	.	16a-/	.	16a-/	.
16BB-/	.	16B-/	.	16b-/	.	16b-/	.
16C/JJ	.	16c/JJ	.	16cc/JJ	.	16cc/JJ	.
16D-\LL	.	16d-\LL	.	16dd-\LL	.	16dd-\LL	.
16E-\	.	16e-\	.	16ee-\	.	16ee-\	.
16D-\	.	16d-\	.	16dd-\	.	16dd-\	.
16C\JJ	.	16c\JJ	.	16cc\JJ	.	16cc\JJ	.
16BB-/LL	.	16B-/LL	.	16b-\LL	.	16b-\LL	.
16C/	.	16c/	.	16cc\	.	16cc\	.
16BB-/	.	16B-/	.	16b-\	.	16b-\	.
16AA-/JJ	.	16A-/JJ	.	16a-\JJ	.	16a-\JJ	.
16GG/LL	.	16G/LL	.	16g/LL	.	16g/LL	.
16FF/	.	16F/	.	16f/	.	16f/	.
16EE-/	.	16E-/	.	16e-/	.	16e-/	.
16DD-/JJ	.	16D-/JJ	.	16d-/JJ	.	16d-/JJ	.
=21	=21	=21	=21	=21	=21	=21	=21
4CC/	.	4C/	.	4c/	.	8c/L	.
.	.	.	.	.	.	(8a-/J	.
4r	.	4r	.	4r	.	4aa-\)	p
2r	.	(4A-/	p	(4c/	p	&(4aa-\&)	.
.	.	8B-/L	.	8d-/L	.	(4gg-\	.
.	.	8c/J)	.	8e-/J)	.	.	.
=22	=22	=22	=22	=22	=22	=22	=22
(4D-\	.	[1d-	.	(4f/	.	4ff\	.
8E-\L	.	.	.	8g-/L	.	8dd-\L	.
8F\J)	.	.	.	8a-/J	.	8cc\J)	.
[2G-\	.	.	.	4b-\	.	[2b-\	.
.	.	.	.	[4e-/)	.	.	.
=23	=23	=23	=23	=23	=23	=23	=23
4G-\]	.	2.d-\]	.	2.e-/]	.	4b-\]	.
(4A-\	.	.	.	.	.	(4a-/	.
4An\	.	.	.	.	.	4g/	.
4A-\)	.	4c\	.	4e-/	.	4a-/)	.
=24	=24	=24	=24	=24	=24	=24	=24
4A-\	.	([4D-/	.	(4f/	.	1a-	.
4r	.	12D-/L]	.	4A-/	.	.	.
.	.	12F/	.	.	.	.	.
.	.	12G-/J)	.	.	.	.	.
2r	.	([4A-/	.	4f/	.	.	.
.	.	12A-/L]	.	4A-/	.	.	.
.	.	12c/	.	.	.	.	.
.	.	12d-/J)	.	.	.	.	.
=25	=25	=25	=25	=25	=25	=25	=25
2r	.	([4e-\	.	4g-/	.	1aa-	.
.	.	12e-\L]	.	4A-/	.	.	.
.	.	12dn\	.	.	.	.	.
.	.	12e-\J)	.	.	.	.	.
4r	.	([4d-\	.	4g-/	.	.	.
4CC/	.	12d-\L]	.	4A-/)	.	.	.
.	.	12c\	.	.	.	.	.
.	.	12B-\J)	.	.	.	.	.
=26	=26	=26	=26	=26	=26	=26	=26
([4DD-/	.	(4A-/	.	(4f/	.	(2.aa-\	.
12DD-/L]	.	4d-\	.	4A-/	.	.	.
12FF/	.	.	.	.	.	.	.
12GG-/J)	.	.	.	.	.	.	.
([4AA-/	.	4f\	.	4d-/	.	.	.
12AA-/L]	.	4d-\	.	4A-/	.	4fff\)	.
12C/	.	.	.	.	.	.	.
12D-/J)	.	.	.	.	.	.	.
=27	=27	=27	=27	=27	=27	=27	=27
([4E-\	.	4g-\	.	4c/	.	(4fff\	.
12E-\L]	.	4c\	.	4A-/	.	4eee-\	.
12F\	.	.	.	.	.	.	.
12G-\J)	.	.	.	.	.	.	.
([4A-\	.	4e-\)	.	4c/	.	4ddd-\	.
12A-\L]	.	(8e-\L	.	4A-/)	.	4ccc\)	.
12A-\	.	.	.	.	.	.	.
.	.	8a-\J)	.	.	.	.	.
12G-\J)	.	.	.	.	.	.	.
=28	=28	=28	=28	=28	=28	=28	=28
4F\	.	(4a-\	.	([4d-/	.	(4ddd-\	.
4r	.	4A-/	.	12d-/L]	.	[2.aa-\)	.
.	.	.	.	12f/	.	.	.
.	.	.	.	12g-/J)	.	.	.
2r	.	4f\	.	([4a-/	.	.	.
.	.	4A-/	.	12a-\L]	.	.	.
.	.	.	.	12cc\	.	.	.
.	.	.	.	12dd-\J)	.	.	.
=29	=29	=29	=29	=29	=29	=29	=29
2r	.	4g-\	.	([4ee-\	.	2.aa-\]	.
.	.	4A-/	.	12ee-\L]	.	.	.
.	.	.	.	12ddn\	.	.	.
.	.	.	.	12ee-\J)	.	.	.
4r	.	4g-\	.	([4dd-\	.	.	.
4C/	.	4A-/)	.	12dd-\L]	.	4aa-\	.
.	.	.	.	12cc\	.	.	.
.	.	.	.	12b-\J)	.	.	.
=30	=30	=30	=30	=30	=30	=30	=30
[4D-\	.	(4f\	.	(4a-/	.	[2aa-\	.
(12D-\L]	.	4A-/)	.	4f/)	.	.	.
12F\	.	.	.	.	.	.	.
12G-\J)	.	.	.	.	.	.	.
[4F\	.	([4A-/	.	(4f/	.	8aa-\L]	.
.	.	.	.	.	.	8ddd-\	.
(12F\L]	.	12A-/L]	.	4d-/)	.	8fff\	.
12G-\	.	12B-/	.	.	.	.	.
.	.	.	.	.	.	[8aaa-\J	.
12A-\J)	.	12Bn/J)	.	.	.	.	.
=31	=31	=31	=31	=31	=31	=31	=31
[4G-\	.	4r	.	(4B-/	.	4aaa-\]	.
(12G-\L]	.	(12B-/L	.	2b-\)	.	(12aaa-\L	.
12A-\	.	12Bn/	.	.	.	12ggg-\	.
12B-\J)	.	12d-/J)	.	.	.	12fff\J)	.
[4G-\	.	4r	.	.	.	(12fff\L	.
.	.	.	.	.	.	12eee-\	.
.	.	.	.	.	.	12ddd-\J)	.
(12G-\L]	.	(12B-\L	.	4B-/	.	(12ddd-\L	.
12A-\	.	12c\	.	.	.	12ccc\	.
12B-\J)	.	12d-\J)	.	.	.	12bb-\J)	.
=32	=32	=32	=32	=32	=32	=32	=32
[4A-\	.	4r	.	(4c/	.	(12bb-\L	.
.	.	.	.	.	.	12aa-\	.
.	.	.	.	.	.	12gg\J	.
(12A-\L]	.	(12c\L	.	2cc\)	.	12bb-\L	.
12B-\	.	12d-\	.	.	.	12aa-\	.
12c\J)	.	12e-\J)	.	.	.	12gg-\J)	.
[4An\	.	4r	.	.	.	(12gg-\L	.
.	.	.	.	.	.	12ff\	.
.	.	.	.	.	.	12een\J	.
(12A\L]	.	(12c\L	.	4c/	.	12gg-\L	.
12B-\	.	12d-\	.	.	.	12ff\	.
12c\J)	.	12e-\J)	.	.	.	12ee-\J)	.
=33	=33	=33	=33	=33	=33	=33	=33
[4B-\	.	4d-\	.	4r	.	(12ee-\L	.
.	.	.	.	.	.	12dd-\	.
.	.	.	.	.	.	12cc\J)	.
(12B-\L]	.	4r	.	(12d-/L	.	(12dd-\L	.
12c\	.	.	.	12e-/	.	12cc\	.
12d-\J)	.	.	.	12en/J)	.	12b-\J)	.
[4B-\	.	4d-\	.	4r	.	(12cc\L	.
.	.	.	.	.	.	12b-\	.
.	.	.	.	.	.	12a-\J)	.
(12B-\L]	.	4r	.	(12d-/L	.	(12b-/L	.
12c\	.	.	.	12e-/	.	12a-/	.
12d-\J)	.	.	.	12en/J)	.	12g/J)	.
=34	=34	=34	=34	=34	=34	=34	=34
4c\	.	4C/	.	4e-/	.	(12b-/L	.
.	.	.	.	.	.	12a-/	p
.	.	.	.	.	.	12g/J)	.
[2.CC/ [2.AA-/	p	2.C/ 2.c/	p	[2e-/ [2ee-/	p	(12g-/L	f
.	.	.	.	.	.	12A-/	.
.	.	.	.	.	.	12a-/J)	.
.	.	.	.	.	.	(12g-/L	.
.	.	.	.	.	.	12A-/	.
.	.	.	.	.	.	12a-/J)	.
.	.	.	.	(16e-\LL] 16ee-\]	.	(12g-/L	.
.	.	.	.	16ff\	.	.	.
.	.	.	.	.	.	12A-/	.
.	.	.	.	16gg-\	.	.	.
.	.	.	.	.	.	12a-/J)	.
.	.	.	.	16ff\JJ)	.	.	.
=35	=35	=35	=35	=35	=35	=35	=35
1CC_ 1AA-_	.	(16E-/LL	.	1ee-	.	(12g-/L	.
.	.	16F/	.	.	.	.	.
.	.	.	.	.	.	12A-/	.
.	.	16G-/	.	.	.	.	.
.	.	.	.	.	.	12a-/J)	.
.	.	16F/JJ)	.	.	.	.	.
.	.	(16E-/LL	.	.	.	(12g-/L	.
.	.	16F/	.	.	.	.	.
.	.	.	.	.	.	12A-/	.
.	.	16G-/	.	.	.	.	.
.	.	.	.	.	.	12a-/J)	.
.	.	16F/JJ)	.	.	.	.	.
.	.	(16E-/LL	.	.	.	(12g-/L	.
.	.	16F/	.	.	.	.	.
.	.	.	.	.	.	12A-/	.
.	.	16G-/	.	.	.	.	.
.	.	.	.	.	.	12a-/J)	.
.	.	16F/JJ)	.	.	.	.	.
.	.	(16E-/LL	.	.	.	(12g-/L	.
.	.	16F/	.	.	.	.	.
.	.	.	.	.	.	12A-/	.
.	.	16G-/	.	.	.	.	.
.	.	.	.	.	.	12a-/J)	.
.	.	16F/JJ)	.	.	.	.	.
=36	=36	=36	=36	=36	=36	=36	=36
4CC/] 4AA-/]	.	4E-/	.	4e-/	.	(16g/LL	.
.	.	.	.	.	.	16a-/	.
.	.	.	.	.	.	16g-/	.
.	.	.	.	.	.	16A-/JJ)	.
[2.CC/ [2.AA-/	f	2.C/ 2.c/	f	[2e-/ [2ee-/	f	(12g-/L	f
.	.	.	.	.	.	12A-/	.
.	.	.	.	.	.	12a-/J)	.
.	.	.	.	.	.	(12g-/L	.
.	.	.	.	.	.	12A-/	.
.	.	.	.	.	.	12a-/J)	.
.	.	.	.	(16e-\LL] 16ee-\]	.	(12g-/L	.
.	.	.	.	16ff\	.	.	.
.	.	.	.	.	.	12A-/	.
.	.	.	.	16gg-\	.	.	.
.	.	.	.	.	.	12a-/J)	.
.	.	.	.	16ff\JJ)	.	.	.
=37	=37	=37	=37	=37	=37	=37	=37
2.CC/] 2.AA-/]	.	(16E-/LL	.	2.ee-\	.	(12g-/L	.
.	.	16F/	.	.	.	.	.
.	.	.	.	.	.	12A-/	.
.	.	16G-/	.	.	.	.	.
.	.	.	.	.	.	12a-/J)	.
.	.	16F/JJ)	.	.	.	.	.
.	.	(16E-/LL	.	.	.	(12g-/L	.
.	.	16F/	.	.	.	.	.
.	.	.	.	.	.	12A-/	.
.	.	16G-/	.	.	.	.	.
.	.	.	.	.	.	12a-/J)	.
.	.	16F/JJ)	.	.	.	.	.
.	.	(16E-/LL	.	.	.	(12g-/L	.
.	.	16F/	.	.	.	.	.
.	.	.	.	.	.	12A-/	.
.	.	16G-/	.	.	.	.	.
.	.	.	.	.	.	12a-/J)	.
.	.	16E-/JJ)	.	.	.	.	.
8AA-'/L	.	8A-'/L	.	8aa-'\L	.	(16A-/LL	.
.	.	.	.	.	.	16a-/)	.
8AA-'/J	.	8A-'/J	.	8A-'/J	.	(16A-/	.
.	.	.	.	.	.	16a-/JJ)	.
=38	=38	=38	=38	=38	=38	=38	=38
4AAn/	ff	4An/	ff	8An/L	ff	8An/L	ff
.	.	.	.	16Bn/L	.	16Bn/L	.
.	.	.	.	16c#/JJ	.	16c#/JJ	.
4r	.	4r	.	16dn/LL	.	16dn/LL	.
.	.	.	.	16en/	.	16en/	.
.	.	.	.	16f#/	.	16f#/	.
.	.	.	.	16g#/JJ	.	16g#/JJ	.
8AA/L	.	8A/L	.	8an\L	.	8an\L	.
16BBn/L	.	16Bn/L	.	16bn\L	.	16bn\L	.
16C#/JJ	.	16c#/JJ	.	16cc#\JJ	.	16cc#\JJ	.
16Dn\LL	.	16dn\LL	.	16ddn/LL	.	16ddn\LL	.
16En\	.	16en\	.	16e/	.	16een\	.
16F#\	.	16f#\	.	16f#/	.	16ff#\	.
16G#\JJ	.	16g#\JJ	.	16g#/JJ	.	16gg#\JJ	.
=39	=39	=39	=39	=39	=39	=39	=39
4AAn'/	.	4An'\ 4an'\	.	4an'/	.	4aan'\	.
4Dn'\	.	4dn'\	.	4ddn'\	.	4dddn'\	.
2r	.	2r	.	2r	.	2r	.
=40	=40	=40	=40	=40	=40	=40	=40
4r	.	4r	.	(4ddn\	p	(4dddn\	p
2.G-\	.	2B-/	.	2ee-\	.	2eee-\	.
.	.	4g-\	p	4b-\)	.	4bb-\)	.
=41	=41	=41	=41	=41	=41	=41	=41
2r	p	2r	.	(4b-\	.	(4bb-\	.
.	.	.	.	2an/	.	2aan\	.
4d-\	.	4A-\ 4f\	.	.	.	.	.
4e-\	.	4A-\ 4g-\	.	4a-/)	.	4aa-\)	.
=42	=42	=42	=42	=42	=42	=42	=42
2r	.	2r	.	(4b-\	.	(4bb-\	.
.	.	.	.	2an/	.	2aan\	.
(4d-\	.	(4A-\ 4f\	.	.	.	.	.
8e-\L)	.	8A-/L) 8g-/	.	8a-/L	.	4aa-\)	.
8AA-\J	.	8E-/J	.	8c/J)	.	.	.
=43	=43	=43	=43	=43	=43	=43	=43
1DD-	.	(16F/LL	.	(16d-/LL	.	1aa-	.
.	.	16G-/	.	16e-/	.	.	.
.	.	16A-/	.	16f/	.	.	.
.	.	16G-/JJ	.	16e-/JJ	.	.	.
.	.	16F/LL	.	16d-/LL	.	.	.
.	.	16G-/	.	16e-/	.	.	.
.	.	16A-/	.	16f/	.	.	.
.	.	16G-/JJ	.	16e-/JJ	.	.	.
.	.	16F/LL	.	16d-/LL	.	.	.
.	.	16G-/	.	16e-/	.	.	.
.	.	16A-/	.	16f/	.	.	.
.	.	16G-/JJ	.	16e-/JJ	.	.	.
.	.	16F/LL	.	16d-/LL	.	.	.
.	.	16G-/	.	16e-/	.	.	.
.	.	16A-/	.	16f/	.	.	.
.	.	16F/JJ)	.	16d-/JJ)	.	.	.
=44	=44	=44	=44	=44	=44	=44	=44
(16DD-/LL	.	(2.E-/	.	(2.c/	.	(4aa-\	.
16EE-/	.	.	.	.	.	.	.
16DD-/	.	.	.	.	.	.	.
16EE-/JJ	.	.	.	.	.	.	.
16DD-/LL	.	.	.	.	.	4gg-\	.
16EE-/	.	.	.	.	.	.	.
16DD-/	.	.	.	.	.	.	.
16EE-/JJ	.	.	.	.	.	.	.
16DD-/LL	.	.	.	.	.	4ee-\	.
16EE-/	.	.	.	.	.	.	.
16DD-/	.	.	.	.	.	.	.
16EE-/JJ	.	.	.	.	.	.	.
16DD-/LL	.	8G-/L	.	8e-/L	.	8cc\L	.
16EE-/	.	.	.	.	.	.	.
16DD-/	.	8E-/J)	.	8c/J)	.	8aa-\J)	.
16EE-/JJ)	.	.	.	.	.	.	.
=45	=45	=45	=45	=45	=45	=45	=45
1DD-	.	(16F/LL	.	(16d-/LL	.	[2aa-\	.
.	.	16G-/	.	16e-/	.	.	.
.	.	16A-/	.	16f/	.	.	.
.	.	16G-/JJ	.	16e-/JJ	.	.	.
.	.	16F/LL	.	16d-/LL	.	.	.
.	.	16G-/	.	16e-/	.	.	.
.	.	16A-/	.	16f/	.	.	.
.	.	16G-/JJ	.	16e-/JJ	.	.	.
.	.	16F/LL	.	16d-/LL	.	8aa-\L]	.
.	.	16G-/	.	16e-/	.	.	.
.	.	16A-/	.	16f/	.	(8aa-\	.
.	.	16G-/JJ	.	16e-/JJ	.	.	.
.	.	16F/LL	.	16d-/LL	.	8bb-\	.
.	.	16G-/	.	16e-/	.	.	.
.	.	16A-/	.	16f/	.	8aa-\J)	.
.	.	16F/JJ)	.	16d-/JJ)	.	.	.
=46	=46	=46	=46	=46	=46	=46	=46
(16DD-/LL	.	(2.E-/	.	(2.c/	.	(4aa-\	.
16EE-/	.	.	.	.	.	.	.
16DD-/	.	.	.	.	.	.	.
16EE-/JJ	.	.	.	.	.	.	.
16DD-/LL	.	.	.	.	.	4gg-\	.
16EE-/	.	.	.	.	.	.	.
16DD-/	.	.	.	.	.	.	.
16EE-/JJ	.	.	.	.	.	.	.
16DD-/LL	.	.	.	.	.	4ee-\	.
16EE-/	.	.	.	.	.	.	.
16DD-/	.	.	.	.	.	.	.
16EE-/JJ	.	.	.	.	.	.	.
16DD-/LL	.	8G-/L	.	8e-/L	.	8cc\L	.
16EE-/	.	.	.	.	.	.	.
16DD-/	.	8E-/J)	.	8c/J)	.	8aa-\J)	.
16EE-/JJ)	.	.	.	.	.	.	.
=47	=47	=47	=47	=47	=47	=47	=47
(16DD-/LL	pp	2F'/	pp	2d-'/	pp	2aa-'\	pp
16EE-/	.	.	.	.	.	.	.
16DD-/	.	.	.	.	.	.	.
16EE-/JJ	.	.	.	.	.	.	.
16DD-/LL	.	.	.	.	.	.	.
16EE-/	.	.	.	.	.	.	.
16DD-/	.	.	.	.	.	.	.
16EE-/JJ)	.	.	.	.	.	.	.
(16DD-/LL	.	2F'/	.	2A-'/	.	2a-'/	.
16EE-/	.	.	.	.	.	.	.
16DD-/	.	.	.	.	.	.	.
16EE-/JJ	.	.	.	.	.	.	.
16DD-/LL	.	.	.	.	.	.	.
16EE-/	.	.	.	.	.	.	.
16DD-/	.	.	.	.	.	.	.
16EE-/JJ)	.	.	.	.	.	.	.
=48	=48	=48	=48	=48	=48	=48	=48
(16DD-/LL	.	2F'/	.	2d-'/	.	2a-'/	.
16EE-/	.	.	.	.	.	.	.
16DD-/	.	.	.	.	.	.	.
16EE-/JJ	.	.	.	.	.	.	.
16DD-/LL	.	.	.	.	.	.	.
16EE-/	.	.	.	.	.	.	.
16DD-/	.	.	.	.	.	.	.
16EE-/JJ)	.	.	.	.	.	.	.
12DD-/L	.	12D-/L	.	12d-/L	.	12dd-\L	.
12DD-/	.	12D-/	.	12d-/	.	12dd-\	.
12DD-/J	.	12D-/J	.	12d-/J	.	12dd-\J	.
12DD-/L	.	12D-/L	.	12d-/L	.	12dd-\L	.
12DD-/	.	12D-/	.	12d-/	.	12dd-\	.
12DD-/J	.	12D-/J	.	12d-/J	.	12dd-\J	.
=49	=49	=49	=49	=49	=49	=49	=49
[2DDn/	ff	[2Dn/	ff	[2dn/	ff	[2ddn\	ff
8DD/L]	.	8D/L]	.	8d/L]	.	8dd\L]	.
16EEn/L	.	16En/L	.	16en/L	.	16een\L	.
16FF#/JJ	.	16F#/JJ	.	16f#/JJ	.	16ff#\JJ	.
16GG/LL	.	16G/LL	.	16g/LL	.	16gg\LL	.
16AAn/	.	16An/	.	16an/	.	16aan\	.
16BBn/	.	16Bn/	.	16bn/	.	16bbn\	.
16C#/JJ	.	16c#/JJ	.	16cc#/JJ	.	16ccc#\JJ	.
=50	=50	=50	=50	=50	=50	=50	=50
4Dn'\	.	4dn'\	.	4ddn'\	.	4dddn'\	.
4r	.	4r	.	4r	.	4r	.
2r	.	2r	.	2r	.	2r	.
=51	=51	=51	=51	=51	=51	=51	=51
4r	.	4r	.	(4ddn\	p	(4dddn\	p
2.G-\	.	(2B-/	.	2ee-\	.	2eee-\	.
.	.	4g-\)	p	4b-\)	.	4bb-\)	.
=52	=52	=52	=52	=52	=52	=52	=52
2r	p	2r	.	(4b-\	.	(4bb-\	.
.	.	.	.	2an/	.	2aan\	.
(4d-\	.	(4A-\ 4f\	.	.	.	.	.
4e-\)	.	4A-\) 4g-\	.	4a-/)	.	4aa-\)	.
=53	=53	=53	=53	=53	=53	=53	=53
2r	.	2r	.	(4b-\	.	(4bb-\	.
.	.	.	.	2an/	.	2aan\	.
(4d-\	.	(4A-\ 4f\	.	.	.	.	.
8e-\L)	.	8A-/L) 8g-/	.	8a-/L	.	4aa-\)	.
8AA-/J	.	8E-/J	.	8c/J)	.	.	.
=54	=54	=54	=54	=54	=54	=54	=54
1DD-	.	(16F/LL	.	(16d-/LL	.	1aa-	.
.	.	16G-/	.	16e-/	.	.	.
.	.	16A-/	.	16f/	.	.	.
.	.	16G-/JJ	.	16e-/JJ	.	.	.
.	.	16F/LL	.	16d-/LL	.	.	.
.	.	16G-/	.	16e-/	.	.	.
.	.	16A-/	.	16f/	.	.	.
.	.	16G-/JJ	.	16e-/JJ	.	.	.
.	.	16F/LL	.	16d-/LL	.	.	.
.	.	16G-/	.	16e-/	.	.	.
.	.	16A-/	.	16f/	.	.	.
.	.	16G-/JJ	.	16e-/JJ	.	.	.
.	.	16F/LL	.	16d-/LL	.	.	.
.	.	16G-/	.	16e-/	.	.	.
.	.	16A-/	.	16f/	.	.	.
.	.	16F/JJ)	.	16d-/JJ)	.	.	.
=55	=55	=55	=55	=55	=55	=55	=55
(16DD-/LL	.	(2.E-/	.	(2.c/	.	(4aa-\	.
16EE-/	.	.	.	.	.	.	.
16DD-/	.	.	.	.	.	.	.
16EE-/JJ	.	.	.	.	.	.	.
16DD-/LL	.	.	.	.	.	4gg-\	.
16EE-/	.	.	.	.	.	.	.
16DD-/	.	.	.	.	.	.	.
16EE-/JJ	.	.	.	.	.	.	.
16DD-/LL	.	.	.	.	.	4ee-\	.
16EE-/	.	.	.	.	.	.	.
16DD-/	.	.	.	.	.	.	.
16EE-/JJ	.	.	.	.	.	.	.
16DD-/LL	.	8G-/L	.	8e-/L	.	8cc\L	.
16EE-/	.	.	.	.	.	.	.
16DD-/	.	8E-/J)	.	8c/J)	.	8aa-\J)	.
16EE-/JJ)	.	.	.	.	.	.	.
=56	=56	=56	=56	=56	=56	=56	=56
1DD-	.	(16F/LL	.	(16d-/LL	.	4.aa-\	.
.	.	16G-/	.	16e-/	.	.	.
.	.	16A-/	.	16f/	.	.	.
.	.	16G-/JJ	.	16e-/JJ	.	.	.
.	.	16F/LL	.	16d-/LL	.	.	.
.	.	16G-/	.	16e-/	.	.	.
.	.	16A-/	.	16f/	.	[8a-/	.
.	.	16G-/JJ	.	16e-/JJ	.	.	.
.	.	16F/LL	.	16d-/LL	.	8a-/L]	.
.	.	16G-/	.	16e-/	.	.	.
.	.	16A-/	.	16f/	.	(8a-/	.
.	.	16G-/JJ	.	16e-/JJ	.	.	.
.	.	16F/LL	.	16d-/LL	.	8b-/	.
.	.	16G-/	.	16e-/	.	.	.
.	.	16A-/	.	16f/	.	8a-/J)	.
.	.	16F/JJ)	.	16d-/JJ)	.	.	.
=57	=57	=57	=57	=57	=57	=57	=57
(16DD-/LL	.	(2.E-/	.	(2.c/	.	(4a-/	.
16EE-/	.	.	.	.	.	.	.
16DD-/	.	.	.	.	.	.	.
16EE-/JJ	.	.	.	.	.	.	.
16DD-/LL	.	.	.	.	.	4g-/	.
16EE-/	.	.	.	.	.	.	.
16DD-/	.	.	.	.	.	.	.
16EE-/JJ	.	.	.	.	.	.	.
16DD-/LL	.	.	.	.	.	4e-/	.
16EE-/	.	.	.	.	.	.	.
16DD-/	.	.	.	.	.	.	.
16EE-/JJ	.	.	.	.	.	.	.
16DD-/LL	.	8G-/L	.	8e-/L	.	8c/L	.
16EE-/	.	.	.	.	.	.	.
16DD-/	.	8E-/J)	.	8c/J)	.	8A-/J)	.
16EE-/JJ)	.	.	.	.	.	.	.
=58	=58	=58	=58	=58	=58	=58	=58
8DD-/L	pp	4F/	pp	4A-/	pp	4d-/	pp
(16A-\L	.	.	.	.	.	.	.
16B-\JJ	.	.	.	.	.	.	.
16A-\LL	.	4r	.	4r	.	4r	.
16B-\	.	.	.	.	.	.	.
16A-\	.	.	.	.	.	.	.
16B-\JJ)	.	.	.	.	.	.	.
4A-\	.	2r	.	4c/	.	4e-/	.
4r	.	.	.	4r	.	4r	.
=59	=59	=59	=59	=59	=59	=59	=59
4D-\	.	8r	.	4d-/	.	4f/	.
.	.	(16A-/LL	.	.	.	.	.
.	.	16B-/JJ	.	.	.	.	.
4r	.	16A-/LL	.	4r	.	4r	.
.	.	16B-/	.	.	.	.	.
.	.	16A-/	.	.	.	.	.
.	.	16B-/JJ)	.	.	.	.	.
4AA-/	.	4A-/	.	4e-/	.	4cc\	.
4r	.	4r	.	4r	.	4r	.
=60	=60	=60	=60	=60	=60	=60	=60
(16FF/LL	ff	2.cc\	ff	1f 1an	ff	1f 1cc 1ff	ff
16GG/	.	.	.	.	.	.	.
16AAn/	.	.	.	.	.	.	.
16GG/JJ)	.	.	.	.	.	.	.
8FF'/L	.	.	.	.	.	.	.
8EEn'/J	.	.	.	.	.	.	.
8DDn'/L	.	.	.	.	.	.	.
8CC'/	.	.	.	.	.	.	.
8DD'/	.	(16cc\LL	.	.	.	.	.
.	.	16dd-\	.	.	.	.	.
8EE'/J	.	16cc\	.	.	.	.	.
.	.	16b-\JJ)	.	.	.	.	.
=61	=61	=61	=61	=61	=61	=61	=61
4FF/	.	(16an\LL	.	16f/LL	.	(4ff\	.
.	.	16b-\	.	16g/	.	.	.
.	.	16cc\	.	16an/	.	.	.
.	.	16b-\JJ)	.	16g/JJ	.	.	.
4r	.	8a'\	.	8f'/	.	4aan\	.
.	.	8r	.	8r	.	.	.
2r	.	(16a\LL	.	16f/LL	.	4ccc\	.
.	.	16b-\	.	16g/	.	.	.
.	.	16cc\	.	16a/	.	.	.
.	.	16b-\JJ)	.	16g/JJ	.	.	.
.	.	8a'\	.	8f'/	.	4fff\)	.
.	.	8r	.	8r	.	.	.
=62	=62	=62	=62	=62	=62	=62	=62
(16E-\LL	ff	1c 1e-	ff	2.An/ 2.g-/ 2.ee-/	ff	1ggg-	ff
16F\	.	.	.	.	.	.	.
16G-\	.	.	.	.	.	.	.
16F\JJ)	.	.	.	.	.	.	.
8E-'\L	.	.	.	.	.	.	.
8D-'\J	.	.	.	.	.	.	.
8C'/L	.	.	.	.	.	.	.
8BB-'/	.	.	.	.	.	.	.
8C'/	.	.	.	(16ee-\LL	.	.	.
.	.	.	.	16ff\	.	.	.
8D-'/J	.	.	.	16ee-\	.	.	.
.	.	.	.	16dd-\JJ)	.	.	.
=63	=63	=63	=63	=63	=63	=63	=63
4E-\	.	(16an\LL	.	(16cc\LL	.	(4gg-\	.
.	.	16b-\	.	16dd-\	.	.	.
.	.	16cc\	.	16ee-\	.	.	.
.	.	16b-\JJ)	.	16dd-\JJ)	.	.	.
4r	.	8a'\	.	8cc'\	.	4ccc\	.
.	.	8r	.	8r	.	.	.
2r	.	(16a\LL	.	(16cc\LL	.	4eee-\	.
.	.	16b-\	.	16dd-\	.	.	.
.	.	16cc\	.	16ee-\	.	.	.
.	.	16b-\JJ)	.	16dd-\JJ	.	.	.
.	.	8a'\	.	8cc'\)	.	4ggg-\)	.
.	.	8r	.	8r	.	.	.
=64	=64	=64	=64	=64	=64	=64	=64
(16B-\LL	ff	2.dd-\	ff	1en 1b-	ff	1gg 1ggg	ff
16c\	.	.	.	.	.	.	.
16d-\	.	.	.	.	.	.	.
16c\JJ)	.	.	.	.	.	.	.
8B-'\L	.	.	.	.	.	.	.
8A-'\J	.	.	.	.	.	.	.
8G'\L	.	.	.	.	.	.	.
8F'\	.	.	.	.	.	.	.
8G'\	.	(16dd-\LL	.	.	.	.	.
.	.	16ee-\	.	.	.	.	.
8A-'\J	.	16dd-\	.	.	.	.	.
.	.	16cc\JJ)	.	.	.	.	.
=65	=65	=65	=65	=65	=65	=65	=65
4B-\	.	(16b-\LL	.	(16g/LL	.	4gg\	.
.	.	16cc\	.	16a-/	.	.	.
.	.	16dd-\	.	16b-/	.	.	.
.	.	16cc\JJ)	.	16a-/JJ)	.	.	.
(16BB-/LL	.	8b-'\	.	8g'/	.	4bb-\	.
16C/	.	.	.	.	.	.	.
16BB-/	.	8r	.	8r	.	.	.
16AA-/JJ	.	.	.	.	.	.	.
16GG/LL	.	(16G/LL	.	(16B-/LL	.	4eeen\	.
16AA-/	.	16A-/	.	16c/	.	.	.
16BB-/	.	16B-/	.	16d-/	.	.	.
16AA-/JJ	.	16A-/JJ	.	16c/JJ	.	.	.
16GG/LL	.	16G/LL	.	16B-/LL	.	[4ggg\	.
16AA-/	.	16A-/	.	16c/	.	.	.
16GG/	.	16G/	.	16B-/	.	.	.
16FF/JJ)	.	16F/JJ)	.	16A-/JJ)	.	.	.
=66	=66	=66	=66	=66	=66	=66	=66
4..EEn/	.	4..En/	.	4..G/	.	8ggg\L]	.
.	.	.	.	.	.	16r	.
.	.	.	.	.	.	(16ggg\Jk	.
.	.	.	.	.	.	[4gg\)	.
16EE/	.	16G/	.	16g/	.	.	.
4..EE/	.	4..G/	.	4..g/	.	8gg\L]	.
.	.	.	.	.	.	16r	.
.	.	.	.	.	.	(16gg\Jk	.
.	.	.	.	.	.	4g/)	.
16EE/	.	16G/	.	16g/	.	.	.
=67	=67	=67	=67	=67	=67	=67	=67
4..FF/	.	4..A-/	.	4..a-/	.	8r	.
.	.	.	.	.	.	16r	.
.	.	.	.	.	.	(16ff\	.
.	.	.	.	.	.	4f/)	.
16FF/	.	16A-/	.	16a-/	.	.	.
4..GG-/	.	4..B-/	.	4..b-\	.	8r	.
.	.	.	.	.	.	16r	.
.	.	.	.	.	.	(16een\	.
.	.	.	.	.	.	4en/)	.
16GG-/	.	16B-/	.	16b-\	.	.	.
=68	=68	=68	=68	=68	=68	=68	=68
4..GG/	.	4..B-/	.	4..b-\	.	8r	.
.	.	.	.	.	.	16r	.
.	.	.	.	.	.	(16ddd-\	.
.	.	.	.	.	.	4dd-\)	.
16GG/	.	16B-/	.	16b-\	.	.	.
4..GG/	.	4..B-/	.	4..b-\	.	8r	.
.	.	.	.	.	.	16r	.
.	.	.	.	.	.	(16dd-\	.
.	.	.	.	.	.	4d-/)	.
16GG/	.	16B-/	.	16b-\	.	.	.
=69	=69	=69	=69	=69	=69	=69	=69
4..AA-/	.	4..c\	.	4..cc\	.	8r	.
.	.	.	.	.	.	16r	.
.	.	.	.	.	.	(16cc\	.
.	.	.	.	.	.	4c/)	.
16AA-/	.	16c\	.	16cc\	.	.	.
4..BB-/	.	4..d-\	.	4..dd-\	.	8r	.
.	.	.	.	.	.	16r	.
.	.	.	.	.	.	(16b-\	.
.	.	.	.	.	.	4B-/)	.
16BB-/	.	16d-\	.	16dd-\	.	.	.
=70	=70	=70	=70	=70	=70	=70	=70
(16BBn/LL	.	2Bn\ 2dn\	.	2ddn\	.	8r	.
16C/	.	.	.	.	.	.	.
16Dn/	.	.	.	.	.	16r	.
16C/JJ)	.	.	.	.	.	(16a-/	.
4BB/	.	.	.	.	.	4A-/)	.
2r	.	(16B\LL	.	(16dd\LL	.	8r	.
.	.	16c\	.	16ee-\	.	.	.
.	.	16d\	.	16ff\	.	16r	.
.	.	16c\JJ)	.	16ee-\JJ)	.	(16a-/	.
.	.	4B/	.	4dd\	.	4A-/)	.
=71	=71	=71	=71	=71	=71	=71	=71
(16BBn/LL	.	2Bn\ 2dn\	.	2dn/ 2ddn/	.	8r	.
16C/	.	.	.	.	.	.	.
16Dn/	.	.	.	.	.	16r	.
16C/JJ)	.	.	.	.	.	(16a-/	.
4BB/	.	.	.	.	.	4A-/)	.
2r	.	(16B\LL	.	(16dd\LL	.	8r	.
.	.	16c\	.	16ee-\	.	.	.
.	.	16d\	.	16ff\	.	16r	.
.	.	16c\JJ)	.	16ee-\JJ)	.	(16a-/	.
.	.	4B/	.	4dd\	.	4A-/)	.
=72	=72	=72	=72	=72	=72	=72	=72
1r	.	1r	.	1r	.	(16a-/LL	.
.	.	.	.	.	.	16A-/)	.
.	.	.	.	.	.	(16a-/	.
.	.	.	.	.	.	16A-/JJ)	.
.	.	.	.	.	.	(16a-/LL	.
.	.	.	.	.	.	16A-/)	.
.	.	.	.	.	.	(16a-/	.
.	.	.	.	.	.	16A-/JJ)	.
.	.	.	.	.	.	(16a-/LL	.
.	.	.	.	.	.	16A-/)	.
.	.	.	.	.	.	(16a-/	.
.	.	.	.	.	.	16A-/JJ)	.
.	.	.	.	.	.	(16a-/LL	.
.	.	.	.	.	.	16A-/)	.
.	.	.	.	.	.	(16a-/	.
.	.	.	.	.	.	16A-/JJ)	.
=73	=73	=73	=73	=73	=73	=73	=73
1GG 1Dn	.	1f	.	1bn 1gg	.	(16bn/LL	.
.	.	.	.	.	.	16Bn/)	.
.	.	.	.	.	.	(16b/	.
.	.	.	.	.	.	16B/JJ)	.
.	.	.	.	.	.	(16b/LL	.
.	.	.	.	.	.	16B/)	.
.	.	.	.	.	.	(16b/	.
.	.	.	.	.	.	16B/JJ)	.
.	.	.	.	.	.	(16b/LL	.
.	.	.	.	.	.	16B/)	.
.	.	.	.	.	.	(16b/	.
.	.	.	.	.	.	16B/JJ)	.
.	.	.	.	.	.	(16b/LL	.
.	.	.	.	.	.	16B/)	.
.	.	.	.	.	.	(16b/	.
.	.	.	.	.	.	16B/JJ)	.
=74	=74	=74	=74	=74	=74	=74	=74
1CC 1C	.	1en 1dd-	.	1b- 1gg	.	(16bb-\LL	.
.	.	.	.	.	.	16b-\)	.
.	.	.	.	.	.	(16bb-\	.
.	.	.	.	.	.	16b-\JJ)	.
.	.	.	.	.	.	(16bb-\LL	.
.	.	.	.	.	.	16b-\)	.
.	.	.	.	.	.	(16bb-\	.
.	.	.	.	.	.	16b-\JJ)	.
.	.	.	.	.	.	(16bb-\LL	.
.	.	.	.	.	.	16b-\)	.
.	.	.	.	.	.	(16bb-\	.
.	.	.	.	.	.	16b-\JJ)	.
.	.	.	.	.	.	(16bb-\LL	.
.	.	.	.	.	.	16b-\)	.
.	.	.	.	.	.	(16bb-\	.
.	.	.	.	.	.	16b-\JJ)	.
=75	=75	=75	=75	=75	=75	=75	=75
(16BB-/LL	.	2r	.	2r	.	8r	.
16C/	.	.	.	.	.	.	.
16D-/	.	.	.	.	.	16r	.
16C/JJ)	.	.	.	.	.	(16ddd-\	.
4BB-/	.	.	.	.	.	4dd-\)	.
2en\	.	(16B-\LL	.	(16gg\LL	.	8r	.
.	.	16c\	.	16aa-\	.	.	.
.	.	16d-\	.	16bb-\	.	16r	.
.	.	16c\JJ)	.	16aa-\JJ)	.	(16dd-\	.
.	.	4B-/	.	4gg\	.	4d-/)	.
=76	=76	=76	=76	=76	=76	=76	=76
(16AA-/LL	.	2r	.	2r	.	8r	.
16BB-/	.	.	.	.	.	.	.
16C/	.	.	.	.	.	16r	.
16BB-/JJ)	.	.	.	.	.	(16ccc\	.
4AA-/	.	.	.	.	.	4cc\)	.
2f\	.	(16A-/LL	.	(16ff\LL	.	8r	.
.	.	16B-/	.	16gg\	.	.	.
.	.	16c/	.	16aa-\	.	16r	.
.	.	16B-/JJ)	.	16gg\JJ)	.	(16cc\	.
.	.	4A-/	.	4ff\	.	4c/)	.
=77	=77	=77	=77	=77	=77	=77	=77
(16C\LL	.	4r	.	2r	.	(16cc/LL	.
16Dn\	.	.	.	.	.	16c/)	.
16En\	.	.	.	.	.	(16cc/	.
16D\JJ)	.	.	.	.	.	16c/JJ)	.
2.C/	.	(16En/LL	.	.	.	(16cc/LL	.
.	.	16F/	.	.	.	16c/)	.
.	.	16G/	.	.	.	(16cc/	.
.	.	16F/JJ)	.	.	.	16c/JJ)	.
.	.	2E/	.	(4ccc\	.	(16cc/LL	.
.	.	.	.	.	.	16c/)	.
.	.	.	.	.	.	(16cc/	.
.	.	.	.	.	.	16c/JJ)	.
.	.	.	.	4cc\	.	(16cc/LL	.
.	.	.	.	.	.	16c/)	.
.	.	.	.	.	.	(16cc/	.
.	.	.	.	.	.	16c/JJ)	.
=78	=78	=78	=78	=78	=78	=78	=78
[2FF/	.	(16F/LL	.	2dd-\	.	(16cc/LL	.
.	.	16G/	.	.	.	16c/)	.
.	.	16A-/	.	.	.	(16cc/	.
.	.	16G/JJ)	.	.	.	16c/JJ)	.
.	.	4F/	.	.	.	(16cc/LL	.
.	.	.	.	.	.	16c/)	.
.	.	.	.	.	.	(16cc/	.
.	.	.	.	.	.	16c/JJ)	.
(16FF/LL]	.	4bn\	.	4ddn\	.	(16cc/LL	.
16GG/	.	.	.	.	.	16c/)	.
16AA-/	.	.	.	.	.	(16cc/	.
16FF/JJ)	.	.	.	.	.	16c/JJ)	.
4CC/	.	4cc\	.	4een\)	.	(16cc/LL	.
.	.	.	.	.	.	16c/)	.
.	.	.	.	.	.	(16cc/	.
.	.	.	.	.	.	16c/JJ)	.
=79	=79	=79	=79	=79	=79	=79	=79
(16C\LL	.	4r	.	2r	.	(16cc/LL	.
16Dn\	.	.	.	.	.	16c/)	.
16En\	.	.	.	.	.	(16cc/	.
16D\JJ)	.	.	.	.	.	16c/JJ)	.
2.C/	.	(16En/LL	.	.	.	(16cc/LL	.
.	.	16F/	.	.	.	16c/)	.
.	.	16G/	.	.	.	(16cc/	.
.	.	16F/JJ)	.	.	.	16c/JJ)	.
.	.	2E/	.	(4ccc\	.	(16cc/LL	.
.	.	.	.	.	.	16c/)	.
.	.	.	.	.	.	(16cc/	.
.	.	.	.	.	.	16c/JJ)	.
.	.	.	.	4cc\	.	(16cc/LL	.
.	.	.	.	.	.	16c/)	.
.	.	.	.	.	.	(16cc/	.
.	.	.	.	.	.	16c/JJ)	.
=80	=80	=80	=80	=80	=80	=80	=80
[2FF/	.	(16F/LL	.	2dd-\	.	(16cc/LL	.
.	.	16G/	.	.	.	16c/)	.
.	.	16A-/	.	.	.	(16cc/	.
.	.	16G/JJ)	.	.	.	16c/JJ)	.
.	.	4F/	.	.	.	(16cc/LL	.
.	.	.	.	.	.	16c/)	.
.	.	.	.	.	.	(16cc/	.
.	.	.	.	.	.	16c/JJ)	.
(16FF/LL]	.	(4bn\	.	4een\	.	(16cc/LL	.
16GG/	.	.	.	.	.	16c/)	.
16AA-/	.	.	.	.	.	(16cc/	.
16FF/JJ)	.	.	.	.	.	16c/JJ)	.
4CC/	.	4cc\)	.	4ee\) 4ccc\	.	(16cc/LL	.
.	.	.	.	.	.	16c/)	.
.	.	.	.	.	.	(16cc/	.
.	.	.	.	.	.	16c/JJ)	.
=81	=81	=81	=81	=81	=81	=81	=81
2DD-/	.	8r	.	2ccc\	.	(16cc/LL	.
.	.	.	.	.	.	16c/)	.
.	.	8f'\	.	.	.	(16cc/	.
.	.	.	.	.	.	16c/JJ)	.
.	.	(16F/LL	.	.	.	(16cc/LL	.
.	.	16G/	.	.	.	16c/)	.
.	.	16A-/	.	.	.	(16cc/	.
.	.	16F/JJ)	.	.	.	16c/JJ)	.
2EEn/	.	8r	.	2bb-\	.	(16cc/LL	.
.	.	.	.	.	.	16c/)	.
.	.	8g'\	.	.	.	(16cc/	.
.	.	.	.	.	.	16c/JJ)	.
.	.	(16G/LL	.	.	.	(16cc/LL	.
.	.	16A-/	.	.	.	16c/)	.
.	.	16B-/	.	.	.	(16cc/	.
.	.	16G/JJ)	.	.	.	16c/JJ)	.
=82	=82	=82	=82	=82	=82	=82	=82
(16FF/LL	f	(16F/LL	f	(16f/LL	f	(16f/LL	f
16GG/	.	16G/	.	16g/	.	16g/	.
16AA-/	.	16A-/	.	16a-/	.	16a-/	.
16GG/JJ)	.	16G/JJ)	.	16g/JJ)	.	16g/JJ)	.
8FF'/L	.	8F'/L	.	8f'/L	.	8f'/L	.
8EE-'/J	.	8E-'/J	.	8e-'/J	.	8e-'/J	.
8DD-'/L	.	8D-'/L	.	8d-'/L	.	8d-'/L	.
8CC'/	.	8C'/	.	8c'/	.	8c'/	.
8DDn'/	.	8Dn'/	.	8dn'/	.	8dn'/	.
8EEn'/J	.	8En'/J	.	8en'/J	.	8en'/J	.
=83	=83	=83	=83	=83	=83	=83	=83
4FF/	.	4F/	.	4f/	.	4f/	.
4r	.	4r	.	4r	.	4r	.
2r	.	2r	.	2r	.	2r	.
=84	=84	=84	=84	=84	=84	=84	=84
(16FF/LL	.	(16F/LL	.	(16f/LL	.	(16f/LL	.
16GG/	.	16G/	.	16g/	.	16g/	.
16AA-/	.	16A-/	.	16a-/	.	16a-/	.
16GG/JJ)	.	16G/JJ)	.	16g/JJ)	.	16g/JJ)	.
4FF'/	.	4F'/	.	4f'/	.	4f'/	.
(16GG-/LL	.	(16G-/LL	.	(16g-/LL	.	(16g-/LL	.
16AA-/	.	16A-/	.	16a-/	.	16a-/	.
16BB-/	.	16B-/	.	16b-/	.	16b-/	.
16AA-/JJ)	.	16A-/JJ)	.	16a-/JJ)	.	16a-/JJ)	.
4GG-'/	.	4G-'/	.	4g-'/	.	4g-'/	.
=85	=85	=85	=85	=85	=85	=85	=85
16GG/LL	ff	16G/LL	ff	16g/LL	ff	16g/LL	ff
16AA-/	.	16A-/	.	16a-/	.	16a-/	.
16BB-/	.	16B-/	.	16b-/	.	16b-/	.
16C/JJ	.	16c/JJ	.	16cc/JJ	.	16cc/JJ	.
16D-\LL	.	16d-\LL	.	16dd-\LL	.	16dd-\LL	.
16E-\	.	16e-\	.	16ee-\	.	16ee-\	.
16D-\	.	16d-\	.	16dd-\	.	16dd-\	.
16C\JJ	.	16c\JJ	.	16cc\JJ	.	16cc\JJ	.
16BB-/LL	.	16B-/LL	.	16b-\LL	.	16b-\LL	.
16C/	.	16c/	.	16cc\	.	16cc\	.
16BB-/	.	16B-/	.	16b-\	.	16b-\	.
16AA-/JJ	.	16A-/JJ	.	16a-\JJ	.	16a-\JJ	.
16GG/LL	.	16G/LL	.	16g/LL	.	16g/LL	.
16FF/	.	16F/	.	16f/	.	16f/	.
16EE-/	.	16E-/	.	16e-/	.	16e-/	.
16DD-/JJ	.	16D-/JJ	.	16d-/JJ	.	16d-/JJ	.
=86	=86	=86	=86	=86	=86	=86	=86
4CC/	.	4C/	.	4c/	.	(8c/L	.
.	.	.	.	.	.	8a-/J	.
4r	.	4r	.	4r	.	2aa-\	.
2r	.	(4A-/	.	(4c/	.	.	.
.	.	8B-/L	.	8d-/L	.	4gg-\)	.
.	.	8c/J)	.	8e-/J)	.	.	.
=87	=87	=87	=87	=87	=87	=87	=87
(4D-\	.	[1d-	.	(4f/	.	(4ff\	.
8E-\L	.	.	.	8g-/L	.	8dd-\L	.
8F\J)	.	.	.	8a-/J	.	8cc\J)	.
[2G-\	.	.	.	4b-\	.	[2b-\	.
.	.	.	.	[4e-/)	.	.	.
=88	=88	=88	=88	=88	=88	=88	=88
(4G-\]	.	2.d-\]	.	2.e-/]	.	(4b-\]	.
4A-\	.	.	.	.	.	4a-/	.
4An\	.	.	.	.	.	4g/	.
4A-\)	.	4c\	.	4e-/	.	4a-/)	.
=89	=89	=89	=89	=89	=89	=89	=89
4A-\	.	([4D-/	.	(4f/	.	1a-	.
4r	.	12D-/L]	.	4A-/	.	.	.
.	.	12F/	.	.	.	.	.
.	.	12G-/J)	.	.	.	.	.
2r	.	([4A-/	.	4f/	.	.	.
.	.	12A-/L]	.	4A-/)	.	.	.
.	.	12c/	.	.	.	.	.
.	.	12d-/J)	.	.	.	.	.
=90	=90	=90	=90	=90	=90	=90	=90
2r	.	[4e-\	.	(4g-/	.	1aa-	.
.	.	(12e-\L]	.	4A-/	.	.	.
.	.	12dn\	.	.	.	.	.
.	.	12e-\J)	.	.	.	.	.
4r	.	[4d-\	.	4g-/	.	.	.
(4C/	.	(12d-\L]	.	4A-/)	.	.	.
.	.	12c\	.	.	.	.	.
.	.	12B-\J)	.	.	.	.	.
=91	=91	=91	=91	=91	=91	=91	=91
[4D-\)	.	(4A-/	.	(4f/	.	(2.aa-\	.
(12D-\L]	.	4d-\	.	4A-/	.	.	.
12F\	.	.	.	.	.	.	.
12G-\J)	.	.	.	.	.	.	.
[4A-\	.	4f\	.	4d-/	.	.	.
(12A-\L]	.	4d-\)	.	4A-/)	.	4fff\)	.
12c\	.	.	.	.	.	.	.
12d-\J)	.	.	.	.	.	.	.
=92	=92	=92	=92	=92	=92	=92	=92
(4c\	.	(4f\	.	(4e-/	.	(4fff\	.
4F\	.	4c\	.	4An/	.	4eee-\	.
4B-\	.	4F/	.	4B-/	.	4ddd-\	.
4En\)	.	4En/) 4G/	.	8b-/L	.	4ccc\)	.
.	.	.	.	8g/J)	.	.	.
=93	=93	=93	=93	=93	=93	=93	=93
(4F\	p	1F 1An	p	[4A-/ [4f/	p	[1ccc	p
4C/	.	.	.	(12A-/L] 12f/]	.	.	.
.	.	.	.	12an/	.	.	.
.	.	.	.	12b-/J)	.	.	.
4An\	.	.	.	([4cc\	.	.	.
4C/	.	.	.	12cc\L]	.	.	.
.	.	.	.	12een\	.	.	.
.	.	.	.	12ff\J)	.	.	.
=94	=94	=94	=94	=94	=94	=94	=94
4B-\	.	1En 1G	.	([4gg\	.	2.ccc\]	.
4C/	.	.	.	12gg\L]	.	.	.
.	.	.	.	12ff#\	.	.	.
.	.	.	.	12gg\J)	.	.	.
4B-\	.	.	.	([4ffn\	.	.	.
4C/)	.	.	.	12ff\L]	.	4ccc\	.
.	.	.	.	12een\	.	.	.
.	.	.	.	12ddn\J)	.	.	.
=95	=95	=95	=95	=95	=95	=95	=95
(4An\	.	[4F/ [4An/	.	4cc\	.	(2.ccc\	.
4C/	.	(12F/L] 12A/]	.	2.An/ 2.f/	.	.	.
.	.	12A/	.	.	.	.	.
.	.	12c/J)	.	.	.	.	.
4A\	.	[4f\	.	.	.	.	.
4C/	.	(12f\L]	.	.	.	4aaan\)	.
.	.	12an\	.	.	.	.	.
.	.	12b-\J)	.	.	.	.	.
=96	=96	=96	=96	=96	=96	=96	=96
4B-\	.	[4cc\	.	1G 1en	.	(4aaan\	.
4C/	.	(12cc\L]	.	.	.	4ggg\	.
.	.	12bn\	.	.	.	.	.
.	.	12cc\J)	.	.	.	.	.
4B-\	.	[4c\	.	.	.	4fff\	.
4C/)	.	(12c/L]	.	.	.	4eeen\)	.
.	.	12Bn/	.	.	.	.	.
.	.	12c/J)	.	.	.	.	.
=97	=97	=97	=97	=97	=97	=97	=97
(4C/	.	4c\	.	[4An/ [4f/	.	(4fff\	.
4CC/	.	2.F/ 2.An/	.	(12A/L] 12f/]	.	2ccc\)	.
.	.	.	.	12an/	.	.	.
.	.	.	.	12b-/J)	.	.	.
4C/	.	.	.	[4cc\	.	.	.
4CC/)	.	.	.	(12cc\L]	.	4ccc\	.
.	.	.	.	12een\	.	.	.
.	.	.	.	12ff\J)	.	.	.
=98	=98	=98	=98	=98	=98	=98	=98
(4C/	.	2.En/ 2.B-/	.	[4gg\	.	1ccc	.
4CC/	.	.	.	(12gg\L]	.	.	.
.	.	.	.	12ff#\	.	.	.
.	.	.	.	12gg\J)	.	.	.
4C/	.	.	.	[4ffn\	.	.	.
4CC/)	.	4E/ 4G/	.	(12ff\L]	.	.	.
.	.	.	.	12een\	.	.	.
.	.	.	.	12ddn\J)	.	.	.
=99	=99	=99	=99	=99	=99	=99	=99
.	.	.	.	.	.	bbnq/LL	.
.	.	.	.	.	.	cccq/JJ	.
[4FF/	.	4F/ 4An/	.	4cc\	.	[2ccc\	.
(12FF/L]	.	(12C/L	.	(12An/L	.	.	.
12AAn/	.	12F/	.	12c/	.	.	.
12C/J)	.	12A/J	.	12f/J)	.	.	.
[4F\	.	4c\	.	4an/	.	8ccc\L]	.
.	.	.	.	.	.	8fff'\	.
(12F\L]	.	4f\)	.	(12a\L	.	8aaan'\	.
12G\	.	.	.	12b-\	.	.	.
.	.	.	.	.	.	[8cccc\J	.
12An\J)	.	.	.	12cc\J)	.	.	.
=100	=100	=100	=100	=100	=100	=100	=100
[4B-\	.	(4dn\	.	4ddn\	.	4cccc\]	.
(12B-\L]	.	2ddn\)	.	(12dn/L	.	(12cccc\L	.
12c\)	.	.	.	12en/	.	12bbb-\	.
12dn\J	.	.	.	12f/J)	.	12aaan\J)	.
[4B-\	.	.	.	4r	.	(12aaa\L	.
.	.	.	.	.	.	12ggg\	.
.	.	.	.	.	.	12fff\J)	.
(12B-\L]	.	4dd\	.	(12d/L	.	(12fff\L	.
12c\	.	.	.	12e/	.	12eeen\	.
12d\J)	.	.	.	12f/J)	.	12dddn\J)	.
=101	=101	=101	=101	=101	=101	=101	=101
[4c\	.	(4en\	.	4r	.	(12dddn\L	.
.	.	.	.	.	.	12ccc\	.
.	.	.	.	.	.	12bbn\J	.
(12c\L]	.	2een\)	.	(12en/L	.	12ddd\L	.
12dn\	.	.	.	12f/	.	12ccc\	.
12en\J)	.	.	.	12g/J)	.	12bb-\J)	.
[4d-\	.	.	.	4r	.	(12bb-\L	.
.	.	.	.	.	.	12aan\	.
.	.	.	.	.	.	12aa-\J	.
(12d-\L]	.	4ee\	.	(12e/L	.	12bb-\L	.
12dn\	.	.	.	12f/	.	12aan\	.
12e\J)	.	.	.	12g/J)	.	12gg\J)	.
=102	=102	=102	=102	=102	=102	=102	=102
[4dn\	.	(4f\	.	4r	.	(12gg\L	.
.	.	.	.	.	.	12ff\	.
.	.	.	.	.	.	12een\J)	.
(12d\L]	.	12bn\L	.	(12f/L	.	(12ff\L	.
12en\	.	12cc\	.	12g/)	.	12ee\	.
12f\J)	.	12ddn\J)	.	12a-/J	.	12ddn\J)	.
[4d\	.	(4f\	.	4r	.	(12ee\L	.
.	.	.	.	.	.	12dd\	.
.	.	.	.	.	.	12cc\J)	.
(12d\L]	.	12b\L	.	(12f/L	.	(12dd\L	.
12e\	.	12cc\	.	12g/	.	12cc\	.
12f\J)	.	12dd\J)	.	12a-/J)	.	12bn\J)	.
=103	=103	=103	=103	=103	=103	=103	=103
4en\	p	4f\	p	4g/	p	(16bn/LL	p
.	.	.	.	.	.	16cc/	.
.	.	.	.	.	.	16b-/	.
.	.	.	.	.	.	16G/JJ)	.
[2.CC/ [2.GG/	f	(2En/	f	[2.b-\ [2.gg\	f	12b-'/L	f
.	.	.	.	.	.	(12G/	.
.	.	.	.	.	.	12cc/J)	.
.	.	.	.	.	.	12b-'/L	.
.	.	.	.	.	.	(12G/	.
.	.	.	.	.	.	12cc/J)	.
.	.	(16E/LL)	.	.	.	12b-'/L	.
.	.	16F/	.	.	.	.	.
.	.	.	.	.	.	(12G/	.
.	.	16G/	.	.	.	.	.
.	.	.	.	.	.	12cc/J)	.
.	.	16F/JJ)	.	.	.	.	.
=104	=104	=104	=104	=104	=104	=104	=104
1CC_ 1GG_	.	[1En	.	(16b-\LL] 16gg\]	.	12b-'/L	.
.	.	.	.	16aan\	.	.	.
.	.	.	.	.	.	(12G/	.
.	.	.	.	16bb-\	.	.	.
.	.	.	.	.	.	12cc/J)	.
.	.	.	.	16aa\JJ)	.	.	.
.	.	.	.	(16gg\LL	.	12b-'/L	.
.	.	.	.	16aa\	.	.	.
.	.	.	.	.	.	(12G/	.
.	.	.	.	16bb-\	.	.	.
.	.	.	.	.	.	12cc/J)	.
.	.	.	.	16aa\JJ)	.	.	.
.	.	.	.	(16gg\LL	.	12b-'/L	.
.	.	.	.	16aa\	.	.	.
.	.	.	.	.	.	(12G/	.
.	.	.	.	16bb-\	.	.	.
.	.	.	.	.	.	12cc/J)	.
.	.	.	.	16aa\JJ)	.	.	.
.	.	.	.	(16gg\LL	.	12b-'/L	.
.	.	.	.	16aa\	.	.	.
.	.	.	.	.	.	(12G/	.
.	.	.	.	16bb-\	.	.	.
.	.	.	.	.	.	12cc/J)	.
.	.	.	.	16aa\JJ)	.	.	.
=105	=105	=105	=105	=105	=105	=105	=105
4CC/] 4GG/]	.	4E/]	.	4gg\	.	(16bn/LL	.
.	.	.	.	.	.	16cc/	.
.	.	.	.	.	.	16b-/	.
.	.	.	.	.	.	16G/JJ)	.
[2.CC/ [2.GG/	f	(2En/	f	[2.b-\ [2.gg\	f	12b-'/L	f
.	.	.	.	.	.	(12G/	.
.	.	.	.	.	.	12cc/J)	.
.	.	.	.	.	.	12b-'/L	.
.	.	.	.	.	.	(12G/	.
.	.	.	.	.	.	12cc/J)	.
.	.	16E/LL)	.	.	.	12b-'/L	.
.	.	16F/	.	.	.	.	.
.	.	.	.	.	.	(12G/	.
.	.	16G/	.	.	.	.	.
.	.	.	.	.	.	12cc/J)	.
.	.	&(16F/JJ&)	.	.	.	.	.
=106	=106	=106	=106	=106	=106	=106	=106
2.CC/] 2.GG/]	.	2.En/	.	(16b-\LL] 16gg\]	.	12b-'/L	.
.	.	.	.	16aan\	.	.	.
.	.	.	.	.	.	(12G/	.
.	.	.	.	16bb-\	.	.	.
.	.	.	.	.	.	12cc/J)	.
.	.	.	.	16aa\JJ)	.	.	.
.	.	.	.	(16gg\LL	.	12b-'/L	.
.	.	.	.	16aa\	.	.	.
.	.	.	.	.	.	(12G/	.
.	.	.	.	16bb-\	.	.	.
.	.	.	.	.	.	12cc/J)	.
.	.	.	.	16aa\JJ)	.	.	.
.	.	.	.	(16gg\LL	.	12b-'/L	.
.	.	.	.	16aa\	.	.	.
.	.	.	.	.	.	(12G/	.
.	.	.	.	16bb-\	.	.	.
.	.	.	.	.	.	12cc/J)	.
.	.	.	.	16gg\JJ)	.	.	.
8CC'/L	.	8C'/L	.	8ccc'\L	.	(16c/LL	.
.	.	.	.	.	.	16cc/)	.
8DD-'/J	.	8D-'/J	.	8dd-'\J	.	(16d-/	.
.	.	.	.	.	.	16dd-/JJ)	.
=107	=107	=107	=107	=107	=107	=107	=107
4DDn/	ff	8Dn'/L	ff	4ddn'\	ff	8dn/L	ff
.	.	16En/L	.	.	.	16en/L	.
.	.	16F#/JJ	.	.	.	16f#/JJ	.
4r	.	16G/LL	.	4r	.	16g/LL	.
.	.	16An/	.	.	.	16an/	.
.	.	16Bn/	.	.	.	16bn/	.
.	.	16c/JJ	.	.	.	16cc/JJ	.
8DD/L	.	16dn/LL	.	8dn/L	.	8ddn\L	.
.	.	16D/	.	.	.	.	.
16EEn/L	.	16E/	.	16en/L	.	16een\L	.
16FF#/JJ	.	16F#/JJ	.	16f#/JJ	.	16ff#\JJ	.
16GG/LL	.	16G/LL	.	16g/LL	.	16gg\LL	.
16AAn/	.	16A/	.	16an/	.	16aan\	.
16BBn/	.	16B/	.	16bn/	.	16bbn\	.
16C/JJ	.	16c/JJ	.	16cc/JJ	.	16ccc\JJ	.
=108	=108	=108	=108	=108	=108	=108	=108
4Dn'\	.	4dn'\	.	4ddn'\	.	4dddn'\	.
4G'\	.	4g'\	.	4gg'\	.	4ggg'\	.
2r	.	2r	.	2r	.	2r	.
=109	=109	=109	=109	=109	=109	=109	=109
4r	.	4r	.	(4ff#\	p	(4fff#\	p
2.B-\	.	(2dn\	.	2gg\	.	2ggg\	.
.	.	4b-\)	p	4ddn\)	.	4dddn\)	.
=110	=110	=110	=110	=110	=110	=110	=110
2r	p	2r	.	(4ddn\	.	(4dddn\	.
.	.	.	.	2dd-\	.	2ddd-\	.
4c\	.	(4f\ 4an\	.	.	.	.	.
4c\	.	4g\) 4b-\	.	4cc\)	.	4ccc\)	.
=111	=111	=111	=111	=111	=111	=111	=111
2r	.	2r	.	(4ddn\	.	(4dddn\	.
.	.	.	.	2dd-\	.	2ddd-\	.
(4c\	.	(4f\ 4an\	.	.	.	.	.
4C/)	.	8g\L) 8b-\	.	8cc/L	.	4ccc\)	.
.	.	8G/J	.	8en/J)	.	.	.
=112	=112	=112	=112	=112	=112	=112	=112
1FF	.	(16An/LL	.	(16f/LL	.	1ccc	.
.	.	16B-/	.	16g/	.	.	.
.	.	16c/	.	16an/	.	.	.
.	.	16B-/JJ	.	16g/JJ	.	.	.
.	.	16A/LL	.	16f/LL	.	.	.
.	.	16B-/	.	16g/	.	.	.
.	.	16c/	.	16a/	.	.	.
.	.	16B-/JJ	.	16g/JJ	.	.	.
.	.	16A/LL	.	16f/LL	.	.	.
.	.	16B-/	.	16g/	.	.	.
.	.	16c/	.	16a/	.	.	.
.	.	16B-/JJ	.	16g/JJ	.	.	.
.	.	16A/LL	.	16f/LL	.	.	.
.	.	16B-/	.	16g/	.	.	.
.	.	16c/	.	16a/	.	.	.
.	.	16A/JJ)	.	16f/JJ)	.	.	.
=113	=113	=113	=113	=113	=113	=113	=113
(16FF/LL	.	(2.G/	.	(2.en/	.	(4ccc\	.
16GG/	.	.	.	.	.	.	.
16FF/	.	.	.	.	.	.	.
16GG/JJ	.	.	.	.	.	.	.
16FF/LL	.	.	.	.	.	4bb-\	.
16GG/	.	.	.	.	.	.	.
16FF/	.	.	.	.	.	.	.
16GG/JJ	.	.	.	.	.	.	.
16FF/LL	.	.	.	.	.	4gg\	.
16GG/	.	.	.	.	.	.	.
16FF/	.	.	.	.	.	.	.
16GG/JJ	.	.	.	.	.	.	.
16FF/LL	.	8B-/L	.	8g/L	.	8een\L	.
16GG/	.	.	.	.	.	.	.
16FF/	.	8G/J)	.	8e/J)	.	8ccc\J)	.
16GG/JJ)	.	.	.	.	.	.	.
=114	=114	=114	=114	=114	=114	=114	=114
1FF	.	(16An/LL	.	(16f/LL	.	[2ccc\	.
.	.	16F/	.	16An/	.	.	.
.	.	16A/	.	16c/	.	.	.
.	.	16G/JJ	.	16B-/JJ	.	.	.
.	.	16F/LL	.	16A/LL	.	.	.
.	.	16G/	.	16B-/	.	.	.
.	.	16A/	.	16c/	.	.	.
.	.	16G/JJ	.	16B-/JJ	.	.	.
.	.	16F/LL	.	16A/LL	.	8ccc\L]	.
.	.	16G/	.	16B-/	.	.	.
.	.	16A/	.	16c/	.	(8ccc\	.
.	.	16G/JJ	.	16B-/JJ	.	.	.
.	.	16F/LL	.	16A/LL	.	8dddn\	.
.	.	16G/	.	16B-/	.	.	.
.	.	16A/	.	16c/	.	8ccc\J)	.
.	.	16F/JJ)	.	16A/JJ)	.	.	.
=115	=115	=115	=115	=115	=115	=115	=115
(16FF/LL	.	2.G/	.	2.B-/	.	(4ccc\	.
16GG/	.	.	.	.	.	.	.
16FF/	.	.	.	.	.	.	.
16GG/JJ	.	.	.	.	.	.	.
16FF/LL	.	.	.	.	.	4bb-\	.
16GG/	.	.	.	.	.	.	.
16FF/	.	.	.	.	.	.	.
16GG/JJ	.	.	.	.	.	.	.
16FF/LL	.	.	.	.	.	4gg\	.
16GG/	.	.	.	.	.	.	.
16FF/	.	.	.	.	.	.	.
16GG/JJ	.	.	.	.	.	.	.
16FF/LL	.	(8G/L	.	(8B-/L	.	8een\L	.
16GG/	.	.	.	.	.	.	.
16FF/	.	8En/J)	.	8G/J)	.	8ccc\J)	.
16GG/JJ)	.	.	.	.	.	.	.
=116	=116	=116	=116	=116	=116	=116	=116
(16FF/LL	.	2F'/	.	2An'/	.	2ccc'\	.
16GG/	.	.	.	.	.	.	.
16FF/	.	.	.	.	.	.	.
16GG/JJ	.	.	.	.	.	.	.
16FF/LL	.	.	.	.	.	.	.
16GG/	.	.	.	.	.	.	.
16FF/	.	.	.	.	.	.	.
16GG/JJ	.	.	.	.	.	.	.
16FF/LL	.	2F'/	.	2A'/ 2f'/	.	2cc'\	.
16GG/	.	.	.	.	.	.	.
16FF/	.	.	.	.	.	.	.
16GG/JJ	.	.	.	.	.	.	.
16FF/LL	.	.	.	.	.	.	.
16GG/	.	.	.	.	.	.	.
16FF/	.	.	.	.	.	.	.
16GG/JJ)	.	.	.	.	.	.	.
=117	=117	=117	=117	=117	=117	=117	=117
(16FF/LL	.	2F'/	.	2An'/ 2f'/	.	2cc'\	.
16GG/	.	.	.	.	.	.	.
16FF/	.	.	.	.	.	.	.
16GG/JJ	.	.	.	.	.	.	.
16FF/LL	.	.	.	.	.	.	.
16GG/	.	.	.	.	.	.	.
16FF/	.	.	.	.	.	.	.
16GG/JJ)	.	.	.	.	.	.	.
12FF/L	.	12F/L	.	12f/L	.	12ff\L	.
12FF/	.	12F/	.	12f/	.	12ff\	.
12FF/J	.	12F/J	.	12f/J	.	12ff\J	.
12GG-/L	.	12G-/L	.	12g-/L	.	12gg-\L	.
12GG-/	.	12G-/	.	12g-/	.	12gg-\	.
12GG-/J	.	12G-/J	.	12g-/J	.	12gg-\J	.
=118	=118	=118	=118	=118	=118	=118	=118
[2GG/	.	[2G/	.	[2g/	.	[2gg\	.
8GG/L]	.	8G/L]	.	8g/L]	.	8gg\L]	.
16AAn/L	.	16An/L	.	16an/L	.	16aan\L	.
16BBn/JJ	.	16Bn/JJ	.	16bn/JJ	.	16bbn\JJ	.
16C\LL	.	16c\LL	.	16cc\LL	.	16ccc\LL	.
16Dn\	.	16dn\	.	16ddn\	.	16dddn\	.
16En\	.	16en\	.	16een\	.	16eeen\	.
16F#\JJ	.	16f#\JJ	.	16ff#\JJ	.	16fff#\JJ	.
=119	=119	=119	=119	=119	=119	=119	=119
4G'\	.	4g'\	.	4gg'\	.	4ggg'\	.
4r	.	4r	.	4r	.	4r	.
2r	.	2r	.	2r	.	2r	.
=120	=120	=120	=120	=120	=120	=120	=120
4r	.	4r	.	(4ff#\	p	(4fff#\	p
2.B-\	.	(2dn\	.	2gg\	.	2ggg\	.
.	.	4b-\)	p	4ddn\)	.	4dddn\)	.
=121	=121	=121	=121	=121	=121	=121	=121
2r	p	2r	.	(4ddn\	.	(4dddn\	.
.	.	.	.	2dd-\	.	2ddd-\	.
4c\	.	(4f\ 4an\	.	.	.	.	.
4c\	.	4g\) 4b-\	.	4cc\)	.	4ccc\)	.
=122	=122	=122	=122	=122	=122	=122	=122
2r	.	2r	.	(4ddn\	.	(4dddn\	.
.	.	.	.	2dd-\	.	2ddd-\	.
4c\	.	(4f\ 4an\	.	.	.	.	.
4C/	.	8g\L) 8b-\	.	8cc/L	.	4ccc\)	.
.	.	8G/J	.	8en/J)	.	.	.
=123	=123	=123	=123	=123	=123	=123	=123
1FF	.	(16An/LL	.	(16f/LL	.	1ccc	.
.	.	16B-/	.	16g/	.	.	.
.	.	16c/	.	16an/	.	.	.
.	.	16B-/JJ	.	16g/JJ	.	.	.
.	.	16A/LL	.	16f/LL	.	.	.
.	.	16B-/	.	16g/	.	.	.
.	.	16c/	.	16a/	.	.	.
.	.	16B-/JJ	.	16g/JJ	.	.	.
.	.	16A/LL	.	16f/LL	.	.	.
.	.	16B-/	.	16g/	.	.	.
.	.	16c/	.	16a/	.	.	.
.	.	16B-/JJ	.	16g/JJ	.	.	.
.	.	16A/LL	.	16f/LL	.	.	.
.	.	16B-/	.	16g/	.	.	.
.	.	16c/	.	16a/	.	.	.
.	.	16A/JJ)	.	16f/JJ)	.	.	.
=124	=124	=124	=124	=124	=124	=124	=124
(16FF/LL	.	(2.G/	.	(2.en/	.	(4ccc\	.
16GG/	.	.	.	.	.	.	.
16FF/	.	.	.	.	.	.	.
16GG/JJ	.	.	.	.	.	.	.
16FF/LL	.	.	.	.	.	4bb-\	.
16GG/	.	.	.	.	.	.	.
16FF/	.	.	.	.	.	.	.
16GG/JJ	.	.	.	.	.	.	.
16FF/LL	.	.	.	.	.	4gg\	.
16GG/	.	.	.	.	.	.	.
16FF/	.	.	.	.	.	.	.
16GG/JJ	.	.	.	.	.	.	.
16FF/LL	.	8B-/L	.	8g/L	.	8een\L	.
16GG/	.	.	.	.	.	.	.
16FF/	.	8G/J)	.	8e/J)	.	8ccc\J)	.
16GG/JJ)	.	.	.	.	.	.	.
=125	=125	=125	=125	=125	=125	=125	=125
1FF	.	(16An/LL	.	(16f/LL	.	4.ccc\	.
.	.	16F/	.	16An/	.	.	.
.	.	16A/	.	16c/	.	.	.
.	.	16G/JJ	.	16B-/JJ	.	.	.
.	.	16F/LL	.	16A/LL	.	.	.
.	.	16G/	.	16B-/	.	.	.
.	.	16A/	.	16c/	.	[8cc\	.
.	.	16G/JJ	.	16B-/JJ	.	.	.
.	.	16F/LL	.	16A/LL	.	8cc\L]	.
.	.	16G/	.	16B-/	.	.	.
.	.	16A/	.	16c/	.	(8cc\	.
.	.	16G/JJ	.	16B-/JJ	.	.	.
.	.	16F/LL	.	16A/LL	.	8ddn\	.
.	.	16G/	.	16B-/	.	.	.
.	.	16A/	.	16c/	.	8cc\J)	.
.	.	16F/JJ)	.	16A/JJ)	.	.	.
=126	=126	=126	=126	=126	=126	=126	=126
(16FF/LL	.	2.En/ 2.G/	.	2.B-/	.	(4cc\	.
16GG/	.	.	.	.	.	.	.
16FF/	.	.	.	.	.	.	.
16GG/JJ	.	.	.	.	.	.	.
16FF/LL	.	.	.	.	.	4b-\	.
16GG/	.	.	.	.	.	.	.
16FF/	.	.	.	.	.	.	.
16GG/JJ	.	.	.	.	.	.	.
16FF/LL	.	.	.	.	.	4g/	.
16GG/	.	.	.	.	.	.	.
16FF/	.	.	.	.	.	.	.
16GG/JJ	.	.	.	.	.	.	.
16FF/LL	.	(8G/L	.	(8B-/L	.	8en/L	.
16GG/	.	.	.	.	.	.	.
16FF/	.	8E/J)	.	8G/J)	.	8c/J)	.
16GG/JJ)	.	.	.	.	.	.	.
=127	=127	=127	=127	=127	=127	=127	=127
8FF/L	.	4An/	.	4c/	.	4f/	.
(16c\L	pp	.	.	.	.	.	.
16dn\JJ	.	.	.	.	.	.	.
16c\LL	.	4r	pp	4r	pp	4r	pp
16d\	.	.	.	.	.	.	.
16c\	.	.	.	.	.	.	.
16d\JJ)	.	.	.	.	.	.	.
4c\	.	2r	.	4en/	.	4g/	.
4r	.	.	.	4r	.	4r	.
=128	=128	=128	=128	=128	=128	=128	=128
4F\	.	8r	.	4c/ 4f/	.	4an/	.
.	.	(16C/LL	.	.	.	.	.
.	.	16Dn/JJ	.	.	.	.	.
4r	.	16C/LL	.	4r	.	4r	.
.	.	16D/	.	.	.	.	.
.	.	16C/	.	.	.	.	.
.	.	16D/JJ)	.	.	.	.	.
4C/	.	4C/	.	4en/	.	4cc\	.
4r	.	4r	.	4r	.	4r	.
=129	=129	=129	=129	=129	=129	=129	=129
(16D-\LL	ff	1d-	ff	1A- 1f	ff	1f 1dd- 1ff	ff
16E-\	.	.	.	.	.	.	.
16F\	.	.	.	.	.	.	.
16E-\JJ)	.	.	.	.	.	.	.
8D-'/L	.	.	.	.	.	.	.
8C'/J	.	.	.	.	.	.	.
8BB-'/L	.	.	.	.	.	.	.
8AA-'/	.	.	.	.	.	.	.
8BB-'/	.	.	.	.	.	.	.
8C'/J	.	.	.	.	.	.	.
=130	=130	=130	=130	=130	=130	=130	=130
(16D-\LL	.	[1f	.	[1aa-	.	(16d-/LL	.
16E-\	.	.	.	.	.	16e-/	.
16F\	.	.	.	.	.	16f/	.
16E-\JJ)	.	.	.	.	.	16e-/JJ)	.
8D-'/L	.	.	.	.	.	8d-'/L	.
8C'/J	.	.	.	.	.	8c'/J	.
8BB-'/L	.	.	.	.	.	8B-'/L	.
8AA-'/	.	.	.	.	.	8A-'/	.
8BB-'/	.	.	.	.	.	8B-'/	.
8C'/J	.	.	.	.	.	8c'/J	.
=131	=131	=131	=131	=131	=131	=131	=131
8D-\L	.	4f\]	.	4aa-\]	.	8d-/L	.
8F\	.	.	.	.	.	8f/	.
8A-\	.	[2.f\	.	[2.aa-\	.	8a-/	.
8d-\J	.	.	.	.	.	8dd-/J	.
8FF/L	.	.	.	.	.	8f\L	.
8AA-/	.	.	.	.	.	8a-\	.
8D-/	.	.	.	.	.	8dd-\	.
8F/J	.	.	.	.	.	8ff\J	.
=132	=132	=132	=132	=132	=132	=132	=132
8AA-\L	.	4f\]	.	4aa-\]	.	8a-\L	.
8D-\	.	.	.	.	.	8dd-\	.
8F\	.	[2.f\	.	[2.aa-\	.	8ff\	.
8A-\J	.	.	.	.	.	8aa-\J	.
8d-\L	.	.	.	.	.	8ddd-\L	.
8A-\	.	.	.	.	.	8aa-\	.
8F\	.	.	.	.	.	8ff\	.
8D-\J	.	.	.	.	.	8dd-\J	.
=133	=133	=133	=133	=133	=133	=133	=133
8BBn\L	.	4f\]	.	4aa-\]	.	8bn\L	.
8Dn\	.	.	.	.	.	8ddn\	.
8F\	.	[2.f\	.	[2.aa-\	.	8ff\	.
8Bn\J	.	.	.	.	.	8bbn\J	.
8dn\L	.	.	.	.	.	8dddn\L	.
8B\	.	.	.	.	.	8bb\	.
8F\	.	.	.	.	.	8ff\	.
8D\J	.	.	.	.	.	8dd\J	.
=134	=134	=134	=134	=134	=134	=134	=134
8GG\L	.	4f\]	.	4aa-\]	.	8G/L	.
8Dn\	.	.	.	.	.	8ddn/	.
8G\	.	2f\	.	[2.gg\	.	8gg/	.
8Bn\J	.	.	.	.	.	8bbn/J	.
8dn\L	.	.	.	.	.	8dddn\L	.
8B\	.	.	.	.	.	8bb\	.
8en\	.	[4c\ [4en\	.	.	.	8eeen\	.
8c\J	.	.	.	.	.	8ccc\J	.
=135	=135	=135	=135	=135	=135	=135	=135
8CC/L	.	4c\] 4e\]	.	4gg\]	.	8eeen\L	.
8EEn/	.	.	.	.	.	8ccc\	.
8GG/	.	4en\ 4cc\	.	4gg\	.	8gg\	.
8C/J	.	.	.	.	.	8een\J	.
8CC/L	.	[2g-\	.	[2aan\	.	8ee-/L	.
8EE-/	.	.	.	.	.	8cc/	.
8AAn/	.	.	.	.	.	8an/	.
8C/J	.	.	.	.	.	8e-/J	.
=136	=136	=136	=136	=136	=136	=136	=136
8CC/L	.	4g-\]	.	4aa\]	.	8gg-\L	.
8EE-/	.	.	.	.	.	8ee-\	.
8AAn/	.	4g-\	.	4aan\	.	8bn\	.
8C/J	.	.	.	.	.	8g-\J	.
8BB-\L	.	[2gn\	.	[2bb-\	.	8ggn\L	.
8D-\	.	.	.	.	.	8dd-\	.
8G\	.	.	.	.	.	8b-\	.
8B-\J	.	.	.	.	.	8gn\J	.
=137	=137	=137	=137	=137	=137	=137	=137
8BB-\L	.	4g\]	.	4bb-\]	.	8gg\L	.
8D-\	.	.	.	.	.	8ddn\	.
8G\	.	4g\	.	4bb-\	.	8b-\	.
8B-\J	.	.	.	.	.	8g\J	.
8C/L	.	4f\	.	4aa-\	.	8ff\L	.
8c/	.	.	.	.	.	8cc\	.
8CC/	.	4en\	.	4gg\	.	8ccc\	.
8C/J	.	.	.	.	.	8cc\J	.
=138	=138	=138	=138	=138	=138	=138	=138
8FF'/L	ff	(16F/LL	ff	(16ff\LL	ff	8ccc'\L	ff
.	.	16G/	.	16gg\	.	.	.
8AA-/	.	16A-/	.	16aa-\	.	8aa-\	.
.	.	16G/JJ)	.	16gg\JJ)	.	.	.
8C/	.	8F/	.	8ff\	.	8ff\	.
8F/J	.	8r	.	8r	.	8cc\J	.
8FF'/L	.	(16E-/LL	.	(16ee-\LL	.	8ccc'\L	.
.	.	16F/	.	16ff\	.	.	.
8AAn/	.	16G-/	.	16gg-\	.	8aan\	.
.	.	16F/JJ)	.	16ff\JJ)	.	.	.
8C/	.	8E-/	.	8ee-\	.	8ee-\	.
8F/J	.	8r	.	8r	.	8cc\J	.
=139	=139	=139	=139	=139	=139	=139	=139
8FF'/L	.	(16D-/LL	.	(16dd-\LL	.	8ccc'\L	.
.	.	16E-/	.	16ee-\	.	.	.
8BB-/	.	16F/	.	16ff\	.	8ff\	.
.	.	16E-/JJ)	.	16ee-\JJ)	.	.	.
8D-/	.	8D-/	.	8dd-\	.	8dd-\	.
8F/J	.	8r	.	8r	.	8b-\J	.
8FF'/L	.	(16B-\LL	.	(16b-\LL	.	8bb-'\L	.
.	.	16c\	.	16cc\	.	.	.
8BB-/	.	16d-\	.	16dd-\	.	8een\	.
.	.	16c\JJ)	.	16cc\JJ)	.	.	.
8D-/	.	8B-/	.	8b-\	.	8dd-\	.
8F/J	.	8r	.	8r	.	8g\J	.
=140	=140	=140	=140	=140	=140	=140	=140
4FF/	.	(16F/LL	.	8gg\	.	8bb-\	.
.	.	16G/	.	.	.	.	.
.	.	16A-/	.	4ff\	.	4aa-\	.
.	.	16G/JJ)	.	.	.	.	.
4r	.	8F/	.	.	.	.	.
.	.	8r	.	8ff\	.	8aa-\	.
2r	.	(16F/LL	.	8r	.	8r	.
.	.	16G/	.	.	.	.	.
.	.	16A-/	.	4een\	.	4gg\	.
.	.	16G/JJ)	.	.	.	.	.
.	.	8F/	.	.	.	.	.
.	.	8r	.	8ff\	.	8aa-\	.
=141	=141	=141	=141	=141	=141	=141	=141
2r	.	(16F/LL	.	8r	.	8r	.
.	.	16G/	.	.	.	.	.
.	.	16A-/	.	4gg\	.	4bb-\	.
.	.	16G/JJ)	.	.	.	.	.
.	.	8F/	.	.	.	.	.
.	.	8r	.	8aa-\	.	8ccc\	.
(2en\	.	(16F/LL	.	8r	.	8r	.
.	.	16G/	.	.	.	.	.
.	.	16A-/	.	4een\	.	4ccc\	.
.	.	16G/JJ)	.	.	.	.	.
.	.	8F/	.	.	.	.	.
.	.	8r	.	8ee\	.	8gg\	.
=142	=142	=142	=142	=142	=142	=142	=142
4f\)	.	(16F/LL	.	8r	.	8r	.
.	.	16G/	.	.	.	.	.
.	.	16A-/	.	4gg\	.	4bb-\	.
.	.	16G/JJ)	.	.	.	.	.
4r	.	8F/	.	.	.	.	.
.	.	8r	.	8ff\	.	8aa-\	.
2r	.	(16F/LL	.	8r	.	8r	.
.	.	16G/	.	.	.	.	.
.	.	16A-/	.	4een\	.	4gg\	.
.	.	16G/JJ)	.	.	.	.	.
.	.	8F/	.	.	.	.	.
.	.	8r	.	8ff\	.	8aa-\	.
=143	=143	=143	=143	=143	=143	=143	=143
2r	.	(16F/LL	.	8r	.	8r	.
.	.	16G/	.	.	.	.	.
.	.	16A-/	.	4gg\	.	4bb-\	.
.	.	16G/JJ)	.	.	.	.	.
.	.	8F/	.	.	.	.	.
.	.	8r	.	8aa-\	.	8ccc\	.
2en\	.	(16F/LL	.	8r	.	8r	.
.	.	16G/	.	.	.	.	.
.	.	16A-/	.	4bb-\	.	4ddd-\	.
.	.	16G/JJ)	.	.	.	.	.
.	.	8F/	.	.	.	.	.
.	.	8r	.	8gg\	.	8eeen\	.
=144	=144	=144	=144	=144	=144	=144	=144
4f\	.	(16F/LL	.	8r	.	8r	.
.	.	16G/	.	.	.	.	.
.	.	16A-/	.	4aa-\	.	4fff\	.
.	.	16G/JJ	.	.	.	.	.
[2.c\	.	16F/LL	.	.	.	.	.
.	.	16G/	.	.	.	.	.
.	.	16A-/	.	8ff\	.	8ff\	.
.	.	16G/JJ	.	.	.	.	.
.	.	16F/LL	.	4r	.	4r	.
.	.	16G/	.	.	.	.	.
.	.	16A-/	.	.	.	.	.
.	.	16G/JJ	.	.	.	.	.
.	.	16F/LL	.	(16f/LL	.	(16f/LL	.
.	.	16G/	.	16g/	.	16g/	.
.	.	16A-/	.	16a-/	.	16a-/	.
.	.	16G/JJ)	.	16g/JJ)	.	16g/JJ)	.
=145	=145	=145	=145	=145	=145	=145	=145
4c\]	.	4F/	.	4f/	.	4f/	.
[2.A-\	.	(16F/LL	.	(16f/LL	.	(16f/LL	.
.	.	16G/	.	16g/	.	16g/	.
.	.	16A-/	.	16a-/	.	16a-/	.
.	.	16G/JJ)	.	16g/JJ)	.	16g/JJ)	.
.	.	4F/	.	4f/	.	4f/	.
.	.	(16F/LL	.	(16f/LL	.	(16f/LL	.
.	.	16G/	.	16g/	.	16g/	.
.	.	16A-/	.	16a-/	.	16a-/	.
.	.	16G/JJ)	.	16g/JJ)	.	16g/JJ)	.
=146	=146	=146	=146	=146	=146	=146	=146
4A-\]	.	(16F/LL	.	(16f/LL	.	(16f/LL	.
.	.	16G/	.	16g/	.	16g/	.
.	.	16A-/	.	16a-/	.	16a-/	.
.	.	16G/JJ)	.	16g/JJ)	.	16g/JJ)	.
2F\	.	8F'/L	.	8f'/L	.	8f'/L	.
.	.	8E-'/J	.	8e-'/J	.	8e-'/J	.
.	.	8D-'/L	.	8d-'/L	.	8d-'/L	.
.	.	8C'/	.	8c'/	.	8c'/	.
[4C/	.	8Dn'/	.	8dn'/	.	8dn'/	.
.	.	8En'/J	.	8en'/J	.	8en'/J	.
=147	=147	=147	=147	=147	=147	=147	=147
4C/]	.	(16F/LL	.	(16f/LL	.	(16f/LL	.
.	.	16G/	.	16g/	.	16g/	.
.	.	16A-/	.	16a-/	.	16a-/	.
.	.	16G/JJ)	.	16g/JJ)	.	16g/JJ)	.
2AA-/	.	8F'/L	.	8f'/L	.	8f'/L	.
.	.	8E-'/J	.	8e-'/J	.	8e-'/J	.
.	.	8D-'/L	.	8d-'/L	.	8d-'/L	.
.	.	8C'/	.	8c'/	.	8c'/	.
[4FF/	.	8Dn'/	.	8dn'/	.	8dn'/	.
.	.	8En'/J	.	8en'/J	.	8en'/J	.
=148	=148	=148	=148	=148	=148	=148	=148
4FF/]	.	4F/	.	4f/	.	4f/	.
(4FF/	.	4r	.	4r	.	4r	.
4DD-/	.	4r	.	4r	.	4r	.
4CC/)	.	(4En/	.	(4B-/	.	(4g/	.
=149	=149	=149	=149	=149	=149	=149	=149
4r	.	4F/)	.	4A-/)	.	4f/)	.
(4FF/	.	4r	.	4r	.	4r	.
4DD-/	.	4r	.	4r	.	4r	.
4CC/)	.	4En/	.	4B-/	.	4g/	.
=150	=150	=150	=150	=150	=150	=150	=150
4r	.	(2.En/	.	(2.B-/	.	(2.g/	.
(4DD-/	.	.	.	.	.	.	.
4CC/	.	.	.	.	.	.	.
4C/	.	4c\	.	4c/	.	4cc\	.
=151	=151	=151	=151	=151	=151	=151	=151
4FF/)	.	4F/)	.	4f/)	.	4f/)	.
4r	.	4r	.	4r	.	4r	.
2r	.	2r	.	2r	.	2r	.
==	==	==	==	==	==	==	==
*-	*-	*-	*-	*-	*-	*-	*-
!!!ENC: Craig Stuart Sapp
!!!END: 2004/09/11/
